;FLAVOR:Marlin
;TIME:12936
;Filament used: 12.3508m
;Layer height: 0.2
;MINX:71.836
;MINY:78.835
;MINZ:0.2
;MAXX:162.3
;MAXY:156.165
;MAXZ:18.44
;Generated with Cura_SteamEngine main
M140 S50
M105
M190 S50
M104 S200
M105
M109 S200
M82 ;absolute extrusion mode
; Ender 3 Custom Start G-code
G92 E0 ; Reset Extruder
G28 ; Home all axes
M420 S1 Z2 ;Enable ABL using saved Mesh and Fade Height
G1 Z2.0 F3000 ; Move Z Axis up little to prevent scratching of Heat Bed
G1 X0.1 Y20 Z0.3 F5000.0 ; Move to start position
G1 X0.1 Y200.0 Z0.3 F1500.0 E15 ; Draw the first line
G1 X0.4 Y200.0 Z0.3 F5000.0 ; Move to side a little
G1 X0.4 Y20 Z0.3 F1500.0 E30 ; Draw the second line
G92 E0 ; Reset Extruder
G1 Z2.0 F3000 ; Move Z Axis up little to prevent scratching of Heat Bed
G1 X5 Y20 Z0.3 F5000.0 ; Move over to prevent blob squish
G92 E0
G92 E0
G1 F1500 E-6
;LAYER_COUNT:78
;LAYER:0
M107
G0 F9000 X93.38 Y79.58 Z0.2
;TYPE:SUPPORT
G1 F1500 E0
G1 F1800 X93.38 Y82.42 E0.09446
G1 X105.62 Y82.42 E0.50156
G1 X105.62 Y81 E0.54879
G1 X105.62 Y79.58 E0.59602
G1 X93.38 Y79.58 E1.00313
G0 F9000 X93.459 Y80
G1 F1800 X105.539 Y80 E1.40491
G0 F9000 X104 Y79.66
G1 F1800 X104 Y82.34 E1.49405
G0 F9000 X105.539 Y82
G1 F1800 X93.459 Y82 E1.89583
G0 F9000 X94 Y82.34
G1 F1800 X94 Y79.66 E1.98496
G0 F9000 X96 Y79.66
G1 F1800 X96 Y82.34 E2.0741
G0 F9000 X98 Y82.34
G1 F1800 X98 Y79.66 E2.16324
G0 F9000 X100 Y79.66
G1 F1800 X100 Y82.34 E2.25238
G0 F9000 X102 Y82.34
G1 F1800 X102 Y79.66 E2.34151
G1 F1500 E-3.65849
G0 F9000 X102 Y78.835
G0 X132.88 Y78.835
G0 X132.88 Y79.58
G1 F1500 E2.34151
G1 F1800 X132.88 Y82.42 E2.43597
G1 X145.12 Y82.42 E2.84308
G1 X145.12 Y81 E2.89031
G1 X145.12 Y79.58 E2.93754
G1 X132.88 Y79.58 E3.34464
G0 F9000 X132.958 Y80
G1 F1800 X145.038 Y80 E3.74642
G0 F9000 X144 Y79.66
G1 F1800 X144 Y82.34 E3.83556
G0 F9000 X145.038 Y82
G1 F1800 X132.958 Y82 E4.23734
G0 F9000 X134 Y82.34
G1 F1800 X134 Y79.66 E4.32648
G0 F9000 X136 Y79.66
G1 F1800 X136 Y82.34 E4.41562
G0 F9000 X138 Y82.34
G1 F1800 X138 Y79.66 E4.50475
G0 F9000 X140 Y79.66
G1 F1800 X140 Y82.34 E4.59389
G0 F9000 X142 Y82.34
G1 F1800 X142 Y79.66 E4.68303
G1 F1500 E-1.31697
;MESH:teensybottom.stl
G0 F9000 X142 Y85.7
G0 X82.55 Y154.499
;TYPE:WALL-INNER
G1 F1500 E4.68303
G1 F1800 X152.449 Y154.5 E7.00788
G1 X154.253 Y154.322 E7.06817
G1 X155.944 Y153.808 E7.12695
G1 X157.495 Y152.979 E7.18545
G1 X158.862 Y151.858 E7.24425
G1 X159.979 Y150.495 E7.30286
G1 X160.81 Y148.94 E7.3615
G1 X161.322 Y147.253 E7.42014
G1 X161.5 Y145.449 E7.48043
G1 X161.5 Y89.949 E9.32637
G1 X161.5 Y89.549 E9.33967
G1 X161.322 Y87.748 E9.39986
G1 X160.808 Y86.056 E9.45868
G1 X159.979 Y84.505 E9.51717
G1 X158.858 Y83.138 E9.57597
G1 X157.495 Y82.021 E9.63458
G1 X155.944 Y81.192 E9.69308
G1 X154.252 Y80.678 E9.75189
G1 X152.449 Y80.501 E9.81215
G1 X147 Y80.5 E9.99338
G1 X147 Y84.65 E10.13141
G1 X146.885 Y84.968 E10.14266
G1 X146.694 Y85.222 E10.15323
G1 X146.387 Y85.423 E10.16543
G1 X146.05 Y85.499 E10.17692
G1 X131.924 Y85.498 E10.64676
G1 X131.67 Y85.445 E10.65539
G1 X131.372 Y85.296 E10.66647
G1 X131.099 Y84.968 E10.68066
G1 X131 Y84.61 E10.69302
G1 X131 Y80.5 E10.82972
G1 X107.5 Y80.5 E11.61133
G1 X107.497 Y88.088 E11.86371
G1 X107.433 Y88.362 E11.87307
G1 X107.333 Y88.555 E11.88029
G1 X107.129 Y88.779 E11.89037
G1 X106.797 Y88.956 E11.90289
G1 X106.589 Y89 E11.90996
G1 X92.46 Y89 E12.37989
G1 X92.238 Y88.966 E12.38736
G1 X91.989 Y88.861 E12.39635
G1 X91.791 Y88.706 E12.40471
G1 X91.623 Y88.482 E12.41402
G1 X91.5 Y88.146 E12.42592
G1 X91.5 Y80.5 E12.68023
G1 X82.551 Y80.5 E12.97788
G1 X80.748 Y80.678 E13.03814
G1 X79.056 Y81.192 E13.09695
G1 X77.505 Y82.021 E13.15544
G1 X76.138 Y83.142 E13.21424
G1 X75.021 Y84.505 E13.27285
G1 X74.19 Y86.06 E13.3315
G1 X73.678 Y87.748 E13.39017
G1 X73.501 Y89.551 E13.45042
G1 X73.501 Y145.451 E15.30966
G1 X73.678 Y147.253 E15.36989
G1 X74.19 Y148.94 E15.42852
G1 X75.021 Y150.495 E15.48717
G1 X76.138 Y151.858 E15.54578
G1 X77.505 Y152.979 E15.60458
G1 X79.056 Y153.808 E15.66307
G1 X80.747 Y154.322 E15.72185
G1 X82.55 Y154.499 E15.78211
G0 F9000 X82.531 Y154.899
G1 F1800 X152.469 Y154.9 E18.10826
G1 X154.331 Y154.716 E18.17049
G1 X156.098 Y154.18 E18.2319
G1 X157.719 Y153.313 E18.29305
G1 X159.146 Y152.142 E18.35444
G1 X160.313 Y150.719 E18.41565
G1 X161.181 Y149.094 E18.47693
G1 X161.716 Y147.331 E18.53821
G1 X161.9 Y145.469 E18.60044
G1 X161.9 Y89.949 E20.44704
G1 X161.9 Y89.529 E20.46101
G1 X161.716 Y87.669 E20.52317
G1 X161.179 Y85.902 E20.5846
G1 X160.313 Y84.281 E20.64573
G1 X159.142 Y82.854 E20.70712
G1 X157.719 Y81.687 E20.76833
G1 X156.098 Y80.821 E20.82946
G1 X154.331 Y80.284 E20.89088
G1 X152.469 Y80.101 E20.95311
G1 X146.6 Y80.1 E21.14832
G1 X146.6 Y84.5 E21.29466
G1 X146.565 Y84.704 E21.30154
G1 X146.482 Y84.858 E21.30736
G1 X146.307 Y85.017 E21.31523
G1 X146.03 Y85.1 E21.32485
G1 X131.94 Y85.098 E21.79348
G1 X131.779 Y85.059 E21.79899
G1 X131.608 Y84.956 E21.80563
G1 X131.468 Y84.779 E21.81314
G1 X131.4 Y84.564 E21.82064
G1 X131.4 Y80.1 E21.96911
G1 X107.1 Y80.1 E22.77733
G1 X107.098 Y88.053 E23.04185
G1 X107.06 Y88.218 E23.04748
G1 X106.947 Y88.402 E23.05466
G1 X106.807 Y88.517 E23.06069
G1 X106.528 Y88.6 E23.07037
G1 X92.451 Y88.599 E23.53857
G1 X92.284 Y88.561 E23.54427
G1 X92.103 Y88.451 E23.55131
G1 X91.936 Y88.208 E23.56112
G1 X91.903 Y88.069 E23.56587
G1 X91.9 Y80.1 E23.83092
G1 X82.531 Y80.1 E24.14254
G1 X80.669 Y80.284 E24.20477
G1 X78.902 Y80.82 E24.26618
G1 X77.281 Y81.687 E24.32732
G1 X75.854 Y82.858 E24.38872
G1 X74.687 Y84.281 E24.44993
G1 X73.819 Y85.906 E24.51121
G1 X73.284 Y87.669 E24.57248
G1 X73.101 Y89.531 E24.63471
G1 X73.101 Y145.471 E26.49529
G1 X73.284 Y147.331 E26.55745
G1 X73.819 Y149.094 E26.61873
G1 X74.687 Y150.719 E26.68
G1 X75.854 Y152.142 E26.74121
G1 X77.281 Y153.313 E26.80261
G1 X78.902 Y154.18 E26.86375
G1 X80.669 Y154.716 E26.92516
G1 X82.531 Y154.899 E26.98739
G0 F9000 X82.511 Y155.299
;TYPE:WALL-OUTER
G1 F1800 X152.489 Y155.3 E29.31487
G1 X154.409 Y155.11 E29.37904
G1 X156.252 Y154.551 E29.4431
G1 X157.942 Y153.647 E29.50684
G1 X159.43 Y152.426 E29.57086
G1 X160.647 Y150.942 E29.6347
G1 X161.553 Y149.248 E29.69859
G1 X162.11 Y147.409 E29.7625
G1 X162.3 Y145.489 E29.82667
G1 X162.3 Y89.949 E31.67394
G1 X162.3 Y89.509 E31.68858
G1 X162.11 Y87.591 E31.75268
G1 X161.551 Y85.748 E31.81674
G1 X160.647 Y84.058 E31.88048
G1 X159.426 Y82.57 E31.9445
G1 X157.942 Y81.353 E32.00834
G1 X156.252 Y80.449 E32.07208
G1 X154.409 Y79.89 E32.13614
G1 X152.489 Y79.701 E32.20031
G1 X146.2 Y79.7 E32.40948
G1 X146.2 Y84.551 E32.57082
G1 X146.05 Y84.7 E32.57786
G1 X131.98 Y84.7 E33.04583
G1 X131.838 Y84.619 E33.05126
G1 X131.802 Y84.53 E33.05446
G1 X131.8 Y79.7 E33.2151
G1 X106.7 Y79.7 E34.04993
G1 X106.7 Y88.063 E34.32809
G1 X106.615 Y88.165 E34.3325
G1 X106.519 Y88.2 E34.3359
G1 X92.466 Y88.198 E34.80331
G1 X92.301 Y88.081 E34.81003
G1 X92.3 Y79.7 E35.08879
G1 X82.511 Y79.7 E35.41437
G1 X80.591 Y79.89 E35.47854
G1 X78.748 Y80.449 E35.5426
G1 X77.058 Y81.353 E35.60634
G1 X75.57 Y82.574 E35.67036
G1 X74.353 Y84.058 E35.7342
G1 X73.447 Y85.752 E35.79809
G1 X72.89 Y87.591 E35.862
G1 X72.701 Y89.511 E35.92617
G1 X72.701 Y145.491 E37.78807
G1 X72.89 Y147.409 E37.85217
G1 X73.447 Y149.248 E37.91608
G1 X74.353 Y150.942 E37.97998
G1 X75.57 Y152.426 E38.04381
G1 X77.058 Y153.647 E38.10783
G1 X78.748 Y154.551 E38.17158
G1 X80.591 Y155.11 E38.23563
G1 X82.511 Y155.299 E38.2998
G0 F9000 X82.541 Y154.601
G0 X82.569 Y154.138
;TYPE:SKIN
G1 F1800 X152.431 Y154.139 E40.62342
G1 X154.18 Y153.966 E40.68188
G1 X155.807 Y153.472 E40.73843
G1 X157.292 Y152.677 E40.79445
G1 X158.607 Y151.599 E40.85101
G1 X159.677 Y150.292 E40.90719
G1 X160.475 Y148.799 E40.9635
G1 X160.966 Y147.18 E41.01977
G1 X161.139 Y145.431 E41.07822
G1 X161.14 Y89.951 E42.92349
G1 X161.14 Y89.566 E42.9363
G1 X160.966 Y87.821 E42.99463
G1 X160.471 Y86.193 E43.05122
G1 X159.677 Y84.708 E43.10723
G1 X158.599 Y83.393 E43.16378
G1 X157.292 Y82.323 E43.21996
G1 X155.807 Y81.529 E43.27597
G1 X154.179 Y81.034 E43.33257
G1 X152.431 Y80.862 E43.39099
G1 X147.36 Y80.861 E43.55965
G1 X147.359 Y84.517 E43.68125
G1 X147.33 Y84.793 E43.69048
G1 X147.192 Y85.16 E43.70352
G1 X147.011 Y85.412 E43.71384
G1 X146.705 Y85.665 E43.72704
G1 X146.429 Y85.793 E43.73716
G1 X146.078 Y85.858 E43.74904
G1 X131.757 Y85.852 E44.22535
G1 X131.266 Y85.67 E44.24277
G1 X130.944 Y85.36 E44.25764
G1 X130.739 Y85.017 E44.27093
G1 X130.64 Y84.655 E44.28341
G1 X130.64 Y80.86 E44.40963
G1 X107.861 Y80.86 E45.16727
G1 X107.856 Y88.119 E45.4087
G1 X107.738 Y88.576 E45.4244
G1 X107.439 Y88.99 E45.44138
G1 X107.21 Y89.164 E45.45095
G1 X106.914 Y89.298 E45.46176
G1 X106.595 Y89.358 E45.47255
G1 X92.436 Y89.36 E45.94348
G1 X92.201 Y89.329 E45.95137
G1 X91.735 Y89.129 E45.96823
G1 X91.466 Y88.888 E45.98025
G1 X91.31 Y88.662 E45.98938
G1 X91.141 Y88.255 E46.00404
G1 X91.14 Y80.86 E46.25
G1 X82.569 Y80.861 E46.53507
G1 X80.821 Y81.034 E46.59349
G1 X79.193 Y81.528 E46.65008
G1 X77.708 Y82.323 E46.7061
G1 X76.393 Y83.401 E46.76266
G1 X75.323 Y84.708 E46.81884
G1 X74.525 Y86.201 E46.87514
G1 X74.034 Y87.821 E46.93144
G1 X73.862 Y89.569 E46.98986
G1 X73.862 Y145.434 E48.84794
G1 X74.034 Y147.18 E48.90629
G1 X74.525 Y148.799 E48.96256
G1 X75.323 Y150.292 E49.01887
G1 X76.393 Y151.599 E49.07505
G1 X77.708 Y152.677 E49.13161
G1 X79.193 Y153.472 E49.18763
G1 X80.82 Y153.966 E49.24418
G1 X82.569 Y154.138 E49.30264
G0 F9000 X82.544 Y154.397
G0 X80.779 Y154.164
G0 X79.118 Y153.659
G0 X77.594 Y152.845
G0 X76.387 Y151.855
G0 X75.06 Y150.356
G0 X75.468 Y150.139
G1 F1800 X77.858 Y152.529 E49.41505
G0 F9000 X77.639 Y152.937
G0 X78.858 Y153.589
G0 X79.077 Y153.181
G1 F1800 X74.818 Y148.923 E49.61536
G0 F9000 X74.505 Y148.044
G1 F1800 X79.953 Y153.493 E49.87164
G0 F9000 X80.767 Y153.74
G1 F1800 X74.258 Y147.231 E50.1778
G0 F9000 X74.175 Y146.583
G1 F1800 X81.415 Y153.823 E50.51835
G0 F9000 X82.042 Y153.884
G1 F1800 X74.113 Y145.956 E50.89128
G0 F9000 X74.061 Y145.338
G1 F1800 X82.66 Y153.937 E51.29575
G0 F9000 X83.226 Y153.937
G1 F1800 X74.061 Y144.772 E51.72685
G0 F9000 X74.061 Y144.206
G1 F1800 X83.792 Y153.937 E52.18456
G0 F9000 X84.357 Y153.937
G1 F1800 X74.061 Y143.64 E52.66888
G0 F9000 X74.061 Y143.075
G1 F1800 X84.923 Y153.937 E53.1798
G0 F9000 X85.489 Y153.937
G1 F1800 X74.061 Y142.509 E53.71733
G0 F9000 X74.061 Y141.943
G1 F1800 X86.054 Y153.937 E54.28147
G0 F9000 X86.62 Y153.937
G1 F1800 X74.061 Y141.378 E54.87221
G0 F9000 X74.061 Y140.812
G1 F1800 X87.186 Y153.937 E55.48957
G0 F9000 X87.751 Y153.937
G1 F1800 X74.061 Y140.246 E56.13353
G0 F9000 X74.061 Y139.681
G1 F1800 X88.317 Y153.937 E56.80409
G0 F9000 X88.883 Y153.937
G1 F1800 X74.061 Y139.115 E57.50127
G0 F9000 X74.061 Y138.549
G1 F1800 X89.449 Y153.937 E58.22507
G0 F9000 X90.014 Y153.937
G1 F1800 X74.061 Y137.984 E58.97545
G0 F9000 X74.061 Y137.418
G1 F1800 X90.58 Y153.937 E59.75245
G0 F9000 X91.146 Y153.937
G1 F1800 X74.061 Y136.852 E60.55608
G0 F9000 X74.061 Y136.287
G1 F1800 X91.711 Y153.937 E61.38628
G0 F9000 X92.277 Y153.937
G1 F1800 X74.061 Y135.721 E62.24311
G0 F9000 X74.061 Y135.155
G1 F1800 X92.843 Y153.937 E63.12655
G0 F9000 X93.408 Y153.937
G1 F1800 X74.061 Y134.589 E64.0366
G0 F9000 X74.061 Y134.024
G1 F1800 X93.974 Y153.937 E64.97325
G0 F9000 X94.54 Y153.937
G1 F1800 X74.061 Y133.458 E65.93652
G0 F9000 X74.061 Y132.892
G1 F1800 X95.105 Y153.937 E66.92639
G0 F9000 X95.671 Y153.937
G1 F1800 X74.061 Y132.327 E67.94285
G0 F9000 X74.061 Y131.761
G1 F1800 X96.237 Y153.937 E68.98595
G0 F9000 X96.802 Y153.937
G1 F1800 X74.061 Y131.195 E70.05564
G0 F9000 X74.061 Y130.63
G1 F1800 X97.368 Y153.937 E71.15193
G0 F9000 X97.934 Y153.937
G1 F1800 X74.061 Y130.064 E72.27484
G0 F9000 X74.061 Y129.498
G1 F1800 X98.499 Y153.937 E73.42435
G0 F9000 X99.065 Y153.937
G1 F1800 X74.061 Y128.933 E74.60046
G0 F9000 X74.061 Y128.367
G1 F1800 X99.631 Y153.937 E75.8032
G0 F9000 X100.197 Y153.937
G1 F1800 X74.061 Y127.801 E77.03255
G0 F9000 X74.061 Y127.236
G1 F1800 X100.762 Y153.937 E78.28849
G0 F9000 X101.328 Y153.937
G1 F1800 X74.061 Y126.67 E79.57104
G0 F9000 X74.061 Y126.104
G1 F1800 X101.894 Y153.937 E80.88022
G0 F9000 X102.459 Y153.937
G1 F1800 X74.061 Y125.539 E82.21598
G0 F9000 X74.061 Y124.973
G1 F1800 X103.025 Y153.937 E83.57835
G0 F9000 X103.591 Y153.937
G1 F1800 X74.061 Y124.407 E84.96736
G0 F9000 X74.061 Y123.841
G1 F1800 X104.156 Y153.937 E86.38296
G0 F9000 X104.722 Y153.937
G1 F1800 X74.061 Y123.276 E87.82515
G0 F9000 X74.061 Y122.71
G1 F1800 X105.288 Y153.937 E89.29398
G0 F9000 X105.853 Y153.937
G1 F1800 X74.061 Y122.144 E90.7894
G0 F9000 X74.061 Y121.579
G1 F1800 X106.419 Y153.937 E92.31142
G0 F9000 X106.985 Y153.937
G1 F1800 X74.061 Y121.013 E93.86006
G0 F9000 X74.061 Y120.447
G1 F1800 X107.55 Y153.937 E95.43531
G0 F9000 X108.116 Y153.937
G1 F1800 X74.061 Y119.882 E97.03715
G0 F9000 X74.061 Y119.316
G1 F1800 X108.682 Y153.937 E98.66562
G0 F9000 X109.247 Y153.937
G1 F1800 X74.061 Y118.75 E100.32068
G0 F9000 X74.061 Y118.185
G1 F1800 X109.813 Y153.937 E102.00235
G0 F9000 X110.379 Y153.937
G1 F1800 X74.061 Y117.619 E103.71063
G0 F9000 X74.061 Y117.053
G1 F1800 X110.945 Y153.937 E105.44554
G0 F9000 X111.51 Y153.937
G1 F1800 X74.061 Y116.488 E107.20703
G0 F9000 X74.061 Y115.922
G1 F1800 X112.076 Y153.937 E108.99514
G0 F9000 X112.642 Y153.937
G1 F1800 X74.061 Y115.356 E110.80987
G0 F9000 X74.061 Y114.791
G1 F1800 X113.207 Y153.937 E112.65118
G0 F9000 X113.773 Y153.937
G1 F1800 X74.061 Y114.225 E114.51911
G0 F9000 X74.061 Y113.659
G1 F1800 X114.339 Y153.937 E116.41366
G0 F9000 X114.904 Y153.937
G1 F1800 X74.061 Y113.093 E118.33482
G0 F9000 X74.061 Y112.528
G1 F1800 X115.47 Y153.937 E120.28257
G0 F9000 X116.036 Y153.937
G1 F1800 X74.061 Y111.962 E122.25694
G0 F9000 X74.061 Y111.396
G1 F1800 X116.601 Y153.937 E124.25792
G0 F9000 X117.167 Y153.937
G1 F1800 X74.061 Y110.831 E126.28549
G0 F9000 X74.061 Y110.265
G1 F1800 X117.733 Y153.937 E128.33969
G0 F9000 X118.299 Y153.937
G1 F1800 X74.061 Y109.699 E130.42051
G0 F9000 X74.061 Y109.134
G1 F1800 X118.865 Y153.937 E132.52793
G0 F9000 X119.431 Y153.937
G1 F1800 X74.061 Y108.568 E134.66197
G0 F9000 X74.061 Y108.002
G1 F1800 X119.996 Y153.937 E136.82261
G0 F9000 X120.562 Y153.937
G1 F1800 X74.061 Y107.437 E139.00985
G0 F9000 X74.061 Y106.871
G1 F1800 X121.128 Y153.937 E141.22372
G0 F9000 X121.693 Y153.937
G1 F1800 X74.061 Y106.305 E143.46418
G0 F9000 X74.061 Y105.74
G1 F1800 X122.259 Y153.937 E145.73124
G0 F9000 X122.825 Y153.937
G1 F1800 X74.061 Y105.174 E148.02493
G0 F9000 X74.061 Y104.608
G1 F1800 X123.39 Y153.937 E150.34521
G0 F9000 X123.956 Y153.937
G1 F1800 X74.061 Y104.042 E152.69212
G0 F9000 X74.061 Y103.477
G1 F1800 X124.522 Y153.937 E155.06563
G0 F9000 X125.087 Y153.937
G1 F1800 X74.061 Y102.911 E157.46573
G0 F9000 X74.061 Y102.345
G1 F1800 X125.653 Y153.937 E159.89246
G0 F9000 X126.219 Y153.937
G1 F1800 X74.061 Y101.78 E162.34579
G0 F9000 X74.061 Y101.214
G1 F1800 X126.784 Y153.937 E164.82572
G0 F9000 X127.35 Y153.937
G1 F1800 X74.061 Y100.648 E167.33227
G0 F9000 X74.061 Y100.083
G1 F1800 X127.916 Y153.937 E169.86542
G0 F9000 X128.482 Y153.937
G1 F1800 X74.061 Y99.517 E172.4252
G0 F9000 X74.061 Y98.951
G1 F1800 X129.047 Y153.937 E175.01157
G0 F9000 X129.613 Y153.937
G1 F1800 X74.061 Y98.386 E177.62454
G0 F9000 X74.061 Y97.82
G1 F1800 X130.179 Y153.937 E180.26414
G0 F9000 X130.744 Y153.937
G1 F1800 X74.061 Y97.254 E182.93033
G0 F9000 X74.061 Y96.689
G1 F1800 X131.31 Y153.937 E185.62313
G0 F9000 X131.876 Y153.937
G1 F1800 X74.061 Y96.123 E188.34254
G0 F9000 X74.061 Y95.557
G1 F1800 X132.441 Y153.937 E191.08856
G0 F9000 X133.007 Y153.937
G1 F1800 X74.061 Y94.992 E193.86117
G0 F9000 X74.061 Y94.426
G1 F1800 X133.573 Y153.937 E196.66041
G0 F9000 X134.138 Y153.937
G1 F1800 X74.061 Y93.86 E199.48625
G0 F9000 X74.061 Y93.294
G1 F1800 X134.704 Y153.937 E202.33871
G0 F9000 X135.27 Y153.937
G1 F1800 X74.061 Y92.729 E205.21777
G0 F9000 X74.061 Y92.163
G1 F1800 X135.835 Y153.937 E208.12343
G0 F9000 X136.401 Y153.937
G1 F1800 X74.061 Y91.597 E211.05571
G0 F9000 X74.061 Y91.032
G1 F1800 X136.967 Y153.937 E214.0146
G0 F9000 X137.532 Y153.937
