;FLAVOR:Marlin
;TIME:11199
;Filament used: 11.3814m
;Layer height: 0.2
;MINX:72.7
;MINY:78.835
;MINZ:0.2
;MAXX:163.164
;MAXY:156.165
;MAXZ:18.44
;Generated with Cura_SteamEngine main
M140 S50
M105
M190 S50
M104 S200
M105
M109 S200
M82 ;absolute extrusion mode
; Ender 3 Custom Start G-code
G92 E0 ; Reset Extruder
G28 ; Home all axes
M420 S1 Z2 ;Enable ABL using saved Mesh and Fade Height
G1 Z2.0 F3000 ; Move Z Axis up little to prevent scratching of Heat Bed
G1 X0.1 Y20 Z0.3 F5000.0 ; Move to start position
G1 X0.1 Y200.0 Z0.3 F1500.0 E15 ; Draw the first line
G1 X0.4 Y200.0 Z0.3 F5000.0 ; Move to side a little
G1 X0.4 Y20 Z0.3 F1500.0 E30 ; Draw the second line
G92 E0 ; Reset Extruder
G1 Z2.0 F3000 ; Move Z Axis up little to prevent scratching of Heat Bed
G1 X5 Y20 Z0.3 F5000.0 ; Move over to prevent blob squish
G92 E0
G92 E0
G1 F1500 E-6
;LAYER_COUNT:78
;LAYER:0
M107
G0 F9000 X111.38 Y79.58 Z0.2
;TYPE:SUPPORT
G1 F1500 E0
G1 F1800 X111.38 Y82.42 E0.09446
G1 X123.62 Y82.42 E0.50156
G1 X123.62 Y81 E0.54879
G1 X123.62 Y79.58 E0.59602
G1 X111.38 Y79.58 E1.00313
G0 F9000 X111.459 Y80
G1 F1800 X123.539 Y80 E1.40491
G0 F9000 X122 Y79.66
G1 F1800 X122 Y82.34 E1.49405
G0 F9000 X123.539 Y82
G1 F1800 X111.459 Y82 E1.89583
G0 F9000 X112 Y82.34
G1 F1800 X112 Y79.66 E1.98496
G0 F9000 X114 Y79.66
G1 F1800 X114 Y82.34 E2.0741
G0 F9000 X116 Y82.34
G1 F1800 X116 Y79.66 E2.16324
G0 F9000 X118 Y79.66
G1 F1800 X118 Y82.34 E2.25238
G0 F9000 X120 Y82.34
G1 F1800 X120 Y79.66 E2.34151
G1 F1500 E-3.65849
;MESH:bottom.stl
G0 F9000 X120 Y85.7
G0 X82.55 Y154.499
;TYPE:WALL-INNER
G1 F1500 E2.34151
G1 F1800 X152.449 Y154.5 E4.66636
G1 X154.253 Y154.322 E4.72666
G1 X155.944 Y153.808 E4.78544
G1 X157.495 Y152.979 E4.84393
G1 X158.862 Y151.858 E4.90273
G1 X159.979 Y150.495 E4.96134
G1 X160.81 Y148.94 E5.01999
G1 X161.322 Y147.253 E5.07862
G1 X161.5 Y145.449 E5.13892
G1 X161.5 Y90.017 E6.98259
G1 X161.5 Y89.549 E6.99816
G1 X161.322 Y87.748 E7.05835
G1 X160.808 Y86.056 E7.11717
G1 X159.979 Y84.505 E7.17566
G1 X158.858 Y83.138 E7.23446
G1 X157.495 Y82.021 E7.29307
G1 X155.944 Y81.192 E7.35156
G1 X154.252 Y80.678 E7.41038
G1 X152.449 Y80.5 E7.47064
G1 X125.5 Y80.5 E8.36697
G1 X125.5 Y84.609 E8.50363
G1 X125.43 Y84.87 E8.51262
G1 X125.206 Y85.21 E8.52616
G1 X125.063 Y85.328 E8.53233
G1 X124.791 Y85.458 E8.54235
G1 X124.587 Y85.5 E8.54928
G1 X110.476 Y85.5 E9.01862
G1 X110.13 Y85.43 E9.03036
G1 X109.794 Y85.21 E9.04371
G1 X109.57 Y84.87 E9.05726
G1 X109.5 Y84.609 E9.06624
G1 X109.5 Y80.5 E9.20291
G1 X82.551 Y80.5 E10.09924
G1 X80.748 Y80.678 E10.1595
G1 X79.056 Y81.192 E10.21831
G1 X77.505 Y82.021 E10.27681
G1 X76.138 Y83.142 E10.3356
G1 X75.021 Y84.505 E10.39422
G1 X74.19 Y86.06 E10.45286
G1 X73.678 Y87.748 E10.51153
G1 X73.5 Y89.551 E10.57179
G1 X73.501 Y145.451 E12.43103
G1 X73.678 Y147.253 E12.49125
G1 X74.19 Y148.94 E12.54989
G1 X75.021 Y150.495 E12.60853
G1 X76.138 Y151.858 E12.66714
G1 X77.505 Y152.979 E12.72594
G1 X79.056 Y153.808 E12.78443
G1 X80.747 Y154.322 E12.84322
G1 X82.55 Y154.499 E12.90347
G0 F9000 X82.531 Y154.899
G1 F1800 X152.469 Y154.9 E15.22962
G1 X154.331 Y154.716 E15.29185
G1 X156.098 Y154.18 E15.35327
G1 X157.719 Y153.313 E15.41441
G1 X159.146 Y152.142 E15.47581
G1 X160.313 Y150.719 E15.53702
G1 X161.181 Y149.094 E15.59829
G1 X161.716 Y147.331 E15.65957
G1 X161.9 Y145.469 E15.7218
G1 X161.9 Y90.017 E17.56614
G1 X161.9 Y89.529 E17.58237
G1 X161.716 Y87.669 E17.64454
G1 X161.18 Y85.902 E17.70596
G1 X160.313 Y84.281 E17.7671
G1 X159.142 Y82.854 E17.82849
G1 X157.719 Y81.687 E17.8897
G1 X156.098 Y80.82 E17.95085
G1 X154.331 Y80.284 E18.01226
G1 X152.469 Y80.1 E18.07449
G1 X125.1 Y80.1 E18.98479
G1 X125.1 Y84.623 E19.13522
G1 X124.944 Y84.905 E19.14594
G1 X124.805 Y85.018 E19.1519
G1 X124.57 Y85.097 E19.16015
G1 X110.472 Y85.1 E19.62905
G1 X110.162 Y84.997 E19.63991
G1 X110.012 Y84.85 E19.6469
G1 X109.9 Y84.617 E19.6555
G1 X109.9 Y80.1 E19.80573
G1 X82.531 Y80.1 E20.71603
G1 X80.669 Y80.284 E20.77826
G1 X78.902 Y80.82 E20.83968
G1 X77.281 Y81.687 E20.90082
G1 X75.854 Y82.858 E20.96222
G1 X74.687 Y84.281 E21.02343
G1 X73.819 Y85.906 E21.0847
G1 X73.284 Y87.669 E21.14598
G1 X73.1 Y89.531 E21.20821
G1 X73.101 Y145.471 E23.06878
G1 X73.284 Y147.331 E23.13095
G1 X73.819 Y149.094 E23.19222
G1 X74.687 Y150.719 E23.2535
G1 X75.854 Y152.142 E23.31471
G1 X77.281 Y153.313 E23.37611
G1 X78.902 Y154.18 E23.43725
G1 X80.669 Y154.716 E23.49866
G1 X82.531 Y154.899 E23.56089
G0 F9000 X82.511 Y155.299
;TYPE:WALL-OUTER
G1 F1800 X152.489 Y155.3 E25.88837
G1 X154.409 Y155.11 E25.95254
G1 X156.252 Y154.551 E26.0166
G1 X157.942 Y153.647 E26.08034
G1 X159.43 Y152.426 E26.14436
G1 X160.647 Y150.942 E26.2082
G1 X161.553 Y149.248 E26.27209
G1 X162.11 Y147.409 E26.336
G1 X162.3 Y145.489 E26.40017
G1 X162.3 Y90.017 E28.24518
G1 X162.3 Y89.509 E28.26207
G1 X162.11 Y87.591 E28.32618
G1 X161.551 Y85.748 E28.39023
G1 X160.647 Y84.058 E28.45398
G1 X159.426 Y82.57 E28.518
G1 X157.942 Y81.353 E28.58183
G1 X156.252 Y80.449 E28.64558
G1 X154.409 Y79.89 E28.70964
G1 X152.489 Y79.7 E28.77381
G1 X124.7 Y79.7 E29.69807
G1 X124.698 Y84.53 E29.85872
G1 X124.602 Y84.673 E29.86445
G1 X124.519 Y84.7 E29.86735
G1 X110.472 Y84.699 E30.33456
G1 X110.3 Y84.568 E30.34175
G1 X110.3 Y79.7 E30.50366
G1 X82.511 Y79.7 E31.42792
G1 X80.591 Y79.89 E31.49209
G1 X78.748 Y80.449 E31.55615
G1 X77.058 Y81.353 E31.6199
G1 X75.57 Y82.574 E31.68392
G1 X74.353 Y84.058 E31.74775
G1 X73.447 Y85.752 E31.81164
G1 X72.89 Y87.591 E31.87555
G1 X72.7 Y89.511 E31.93973
G1 X72.701 Y145.491 E33.80163
G1 X72.89 Y147.409 E33.86573
G1 X73.447 Y149.248 E33.92964
G1 X74.353 Y150.942 E33.99353
G1 X75.57 Y152.426 E34.05737
G1 X77.058 Y153.647 E34.12139
G1 X78.748 Y154.551 E34.18513
G1 X80.591 Y155.11 E34.24919
G1 X82.511 Y155.299 E34.31336
G0 F9000 X82.541 Y154.601
G0 X82.569 Y154.138
;TYPE:SKIN
G1 F1800 X152.431 Y154.139 E36.63698
G1 X154.18 Y153.966 E36.69543
G1 X155.807 Y153.472 E36.75199
G1 X157.292 Y152.677 E36.80801
G1 X158.607 Y151.599 E36.86457
G1 X159.677 Y150.292 E36.92075
G1 X160.475 Y148.799 E36.97705
G1 X160.966 Y147.18 E37.03332
G1 X161.139 Y145.431 E37.09178
G1 X161.14 Y90.02 E38.93475
G1 X161.14 Y89.566 E38.94985
G1 X160.966 Y87.821 E39.00818
G1 X160.472 Y86.193 E39.06477
G1 X159.677 Y84.708 E39.12079
G1 X158.599 Y83.393 E39.17735
G1 X157.292 Y82.323 E39.23353
G1 X155.806 Y81.528 E39.28958
G1 X154.179 Y81.034 E39.34613
G1 X152.431 Y80.86 E39.40456
G1 X125.86 Y80.86 E40.28831
G1 X125.859 Y84.525 E40.41021
G1 X125.814 Y84.868 E40.42172
G1 X125.612 Y85.291 E40.43731
G1 X125.295 Y85.63 E40.45275
G1 X124.886 Y85.807 E40.46757
G1 X124.596 Y85.858 E40.47736
G1 X110.454 Y85.86 E40.94773
G1 X109.961 Y85.752 E40.96451
G1 X109.69 Y85.596 E40.97491
G1 X109.374 Y85.295 E40.98943
G1 X109.185 Y84.863 E41.00511
G1 X109.141 Y84.526 E41.01642
G1 X109.14 Y80.86 E41.13835
G1 X82.569 Y80.86 E42.0221
G1 X80.821 Y81.034 E42.08053
G1 X79.193 Y81.528 E42.13711
G1 X77.708 Y82.323 E42.19314
G1 X76.393 Y83.401 E42.24969
G1 X75.323 Y84.708 E42.30587
G1 X74.525 Y86.201 E42.36218
G1 X74.034 Y87.821 E42.41848
G1 X73.86 Y89.569 E42.47691
G1 X73.862 Y145.434 E44.33498
G1 X74.034 Y147.18 E44.39334
G1 X74.525 Y148.799 E44.44961
G1 X75.323 Y150.292 E44.50591
G1 X76.393 Y151.599 E44.56209
G1 X77.708 Y152.677 E44.61865
G1 X79.193 Y153.472 E44.67467
G1 X80.82 Y153.966 E44.73123
G1 X82.569 Y154.138 E44.78968
G0 F9000 X82.544 Y154.397
G0 X80.779 Y154.164
G0 X79.118 Y153.659
G0 X77.594 Y152.845
G0 X76.387 Y151.855
G0 X75.06 Y150.356
G0 X75.468 Y150.139
G1 F1800 X77.858 Y152.529 E44.9021
G0 F9000 X77.639 Y152.937
G0 X78.858 Y153.589
G0 X79.077 Y153.181
G1 F1800 X74.818 Y148.923 E45.1024
G0 F9000 X74.505 Y148.044
G1 F1800 X79.953 Y153.493 E45.35868
G0 F9000 X80.767 Y153.74
G1 F1800 X74.258 Y147.231 E45.66485
G0 F9000 X74.175 Y146.583
G1 F1800 X81.415 Y153.823 E46.0054
G0 F9000 X82.042 Y153.884
G1 F1800 X74.113 Y145.956 E46.37833
G0 F9000 X74.061 Y145.338
G1 F1800 X82.66 Y153.937 E46.7828
G0 F9000 X83.226 Y153.937
G1 F1800 X74.061 Y144.772 E47.21389
G0 F9000 X74.061 Y144.206
G1 F1800 X83.792 Y153.937 E47.67161
G0 F9000 X84.357 Y153.937
G1 F1800 X74.061 Y143.64 E48.15592
G0 F9000 X74.061 Y143.075
G1 F1800 X84.923 Y153.937 E48.66684
G0 F9000 X85.489 Y153.937
G1 F1800 X74.061 Y142.509 E49.20438
G0 F9000 X74.061 Y141.943
G1 F1800 X86.054 Y153.937 E49.76852
G0 F9000 X86.62 Y153.937
G1 F1800 X74.061 Y141.378 E50.35925
G0 F9000 X74.061 Y140.812
G1 F1800 X87.186 Y153.937 E50.97661
G0 F9000 X87.751 Y153.937
G1 F1800 X74.061 Y140.246 E51.62057
G0 F9000 X74.061 Y139.681
G1 F1800 X88.317 Y153.937 E52.29113
G0 F9000 X88.883 Y153.937
G1 F1800 X74.061 Y139.115 E52.98831
G0 F9000 X74.061 Y138.549
G1 F1800 X89.449 Y153.937 E53.71212
G0 F9000 X90.014 Y153.937
G1 F1800 X74.061 Y137.984 E54.4625
G0 F9000 X74.061 Y137.418
G1 F1800 X90.58 Y153.937 E55.2395
G0 F9000 X91.146 Y153.937
G1 F1800 X74.061 Y136.852 E56.04312
G0 F9000 X74.061 Y136.287
G1 F1800 X91.711 Y153.937 E56.87333
G0 F9000 X92.277 Y153.937
G1 F1800 X74.061 Y135.721 E57.73015
G0 F9000 X74.061 Y135.155
G1 F1800 X92.843 Y153.937 E58.6136
G0 F9000 X93.408 Y153.937
G1 F1800 X74.061 Y134.589 E59.52365
G0 F9000 X74.061 Y134.024
G1 F1800 X93.974 Y153.937 E60.46029
G0 F9000 X94.54 Y153.937
G1 F1800 X74.061 Y133.458 E61.42356
G0 F9000 X74.061 Y132.892
G1 F1800 X95.105 Y153.937 E62.41343
G0 F9000 X95.671 Y153.937
G1 F1800 X74.061 Y132.327 E63.4299
G0 F9000 X74.061 Y131.761
G1 F1800 X96.237 Y153.937 E64.47299
G0 F9000 X96.802 Y153.937
G1 F1800 X74.061 Y131.195 E65.54268
G0 F9000 X74.061 Y130.63
G1 F1800 X97.368 Y153.937 E66.63897
G0 F9000 X97.934 Y153.937
G1 F1800 X74.061 Y130.064 E67.76188
G0 F9000 X74.061 Y129.498
G1 F1800 X98.499 Y153.937 E68.91139
G0 F9000 X99.065 Y153.937
G1 F1800 X74.061 Y128.933 E70.08751
G0 F9000 X74.061 Y128.367
G1 F1800 X99.631 Y153.937 E71.29024
G0 F9000 X100.197 Y153.937
G1 F1800 X74.061 Y127.801 E72.5196
G0 F9000 X74.061 Y127.236
G1 F1800 X100.762 Y153.937 E73.77553
G0 F9000 X101.328 Y153.937
G1 F1800 X74.06 Y126.669 E75.05813
G0 F9000 X74.06 Y126.104
G1 F1800 X101.894 Y153.937 E76.36734
G0 F9000 X102.459 Y153.937
G1 F1800 X74.06 Y125.538 E77.70314
G0 F9000 X74.06 Y124.972
G1 F1800 X103.025 Y153.937 E79.06556
G0 F9000 X103.591 Y153.937
G1 F1800 X74.06 Y124.406 E80.45461
G0 F9000 X74.06 Y123.841
G1 F1800 X104.156 Y153.937 E81.87023
G0 F9000 X104.722 Y153.937
G1 F1800 X74.06 Y123.275 E83.31248
G0 F9000 X74.06 Y122.709
G1 F1800 X105.288 Y153.937 E84.78135
G0 F9000 X105.853 Y153.937
G1 F1800 X74.06 Y122.144 E86.2768
G0 F9000 X74.06 Y121.578
G1 F1800 X106.419 Y153.937 E87.79886
G0 F9000 X106.985 Y153.937
G1 F1800 X74.06 Y121.012 E89.34756
G0 F9000 X74.06 Y120.447
G1 F1800 X107.55 Y153.937 E90.92282
G0 F9000 X108.116 Y153.937
G1 F1800 X74.06 Y119.881 E92.52471
G0 F9000 X74.06 Y119.315
G1 F1800 X108.682 Y153.937 E94.15322
G0 F9000 X109.247 Y153.937
G1 F1800 X74.06 Y118.75 E95.80831
G0 F9000 X74.06 Y118.184
G1 F1800 X109.813 Y153.937 E97.49002
G0 F9000 X110.379 Y153.937
G1 F1800 X74.06 Y117.618 E99.19836
G0 F9000 X74.06 Y117.053
G1 F1800 X110.945 Y153.937 E100.93329
G0 F9000 X111.51 Y153.937
G1 F1800 X74.06 Y116.487 E102.69483
G0 F9000 X74.06 Y115.921
G1 F1800 X112.076 Y153.937 E104.48298
G0 F9000 X112.642 Y153.937
G1 F1800 X74.06 Y115.355 E106.29776
G0 F9000 X74.06 Y114.79
G1 F1800 X113.207 Y153.937 E108.13912
G0 F9000 X113.773 Y153.937
G1 F1800 X74.06 Y114.224 E110.00709
G0 F9000 X74.06 Y113.658
G1 F1800 X114.339 Y153.937 E111.90169
G0 F9000 X114.904 Y153.937
G1 F1800 X74.06 Y113.093 E113.82287
G0 F9000 X74.06 Y112.527
G1 F1800 X115.47 Y153.937 E115.77067
G0 F9000 X116.036 Y153.937
G1 F1800 X74.06 Y111.961 E117.74509
G0 F9000 X74.06 Y111.396
G1 F1800 X116.601 Y153.937 E119.74609
G0 F9000 X117.167 Y153.937
G1 F1800 X74.06 Y110.83 E121.77371
G0 F9000 X74.06 Y110.264
G1 F1800 X117.733 Y153.937 E123.82796
G0 F9000 X118.299 Y153.937
G1 F1800 X74.06 Y109.699 E125.9088
G0 F9000 X74.06 Y109.133
G1 F1800 X118.865 Y153.937 E128.01627
G0 F9000 X119.431 Y153.937
G1 F1800 X74.06 Y108.567 E130.15035
G0 F9000 X74.06 Y108.001
G1 F1800 X119.996 Y153.937 E132.31104
G0 F9000 X120.562 Y153.937
G1 F1800 X74.06 Y107.435 E134.49836
G0 F9000 X74.06 Y106.869
G1 F1800 X121.128 Y153.937 E136.71229
G0 F9000 X121.693 Y153.937
G1 F1800 X74.06 Y106.304 E138.9528
G0 F9000 X74.06 Y105.738
G1 F1800 X122.259 Y153.937 E141.21993
G0 F9000 X122.825 Y153.937
G1 F1800 X74.06 Y105.172 E143.51369
G0 F9000 X74.06 Y104.607
G1 F1800 X123.39 Y153.937 E145.83402
G0 F9000 X123.956 Y153.937
G1 F1800 X74.06 Y104.041 E148.18098
G0 F9000 X74.06 Y103.475
G1 F1800 X124.522 Y153.937 E150.55455
G0 F9000 X125.087 Y153.937
G1 F1800 X74.06 Y102.91 E152.95471
G0 F9000 X74.06 Y102.344
G1 F1800 X125.653 Y153.937 E155.38148
G0 F9000 X126.219 Y153.937
G1 F1800 X74.06 Y101.778 E157.83488
G0 F9000 X74.06 Y101.213
G1 F1800 X126.784 Y153.937 E160.31486
G0 F9000 X127.35 Y153.937
G1 F1800 X74.06 Y100.647 E162.82146
G0 F9000 X74.06 Y100.081
G1 F1800 X127.916 Y153.937 E165.35468
G0 F9000 X128.482 Y153.937
G1 F1800 X74.06 Y99.516 E167.9145
G0 F9000 X74.06 Y98.95
G1 F1800 X129.047 Y153.937 E170.50092
G0 F9000 X129.613 Y153.937
G1 F1800 X74.06 Y98.384 E173.11396
G0 F9000 X74.06 Y97.819
G1 F1800 X130.179 Y153.937 E175.7536
G0 F9000 X130.744 Y153.937
G1 F1800 X74.06 Y97.253 E178.41984
G0 F9000 X74.06 Y96.687
G1 F1800 X131.31 Y153.937 E181.11271
G0 F9000 X131.876 Y153.937
G1 F1800 X74.06 Y96.121 E183.8322
G0 F9000 X74.06 Y95.556
G1 F1800 X132.441 Y153.937 E186.57826
G0 F9000 X133.007 Y153.937
G1 F1800 X74.06 Y94.99 E189.35095
G0 F9000 X74.06 Y94.424
G1 F1800 X133.573 Y153.937 E192.15026
G0 F9000 X134.138 Y153.937
G1 F1800 X74.06 Y93.859 E194.97614
G0 F9000 X74.06 Y93.293
G1 F1800 X134.704 Y153.937 E197.82865
G0 F9000 X135.27 Y153.937
G1 F1800 X74.06 Y92.727 E200.70778
G0 F9000 X74.06 Y92.162
G1 F1800 X135.835 Y153.937 E203.61349
G0 F9000 X136.401 Y153.937
G1 F1800 X74.06 Y91.596 E206.54581
G0 F9000 X74.06 Y91.03
G1 F1800 X136.967 Y153.937 E209.50477
G0 F9000 X137.532 Y153.937
G1 F1800 X74.06 Y90.465 E212.4903
G0 F9000 X74.06 Y89.899
G1 F1800 X138.098 Y153.937 E215.50245
G0 F9000 X138.664 Y153.937
G1 F1800 X74.082 Y89.355 E218.54019
G0 F9000 X74.133 Y88.84
G1 F1800 X139.23 Y153.937 E221.60215
G0 F9000 X139.795 Y153.937
G1 F1800 X74.183 Y88.326 E224.68831
G0 F9000 X74.242 Y87.819
G1 F1800 X140.361 Y153.937 E227.79832
G0 F9000 X140.927 Y153.937
G1 F1800 X74.374 Y87.384 E230.92877
G0 F9000 X74.505 Y86.95
G1 F1800 X141.492 Y153.937 E234.07964
G0 F9000 X142.058 Y153.937
G1 F1800 X74.637 Y86.517 E237.25089
G0 F9000 X74.798 Y86.112
G1 F1800 X142.624 Y153.937 E240.44119
G0 F9000 X143.189 Y153.937
G1 F1800 X74.995 Y85.743 E243.64883
G0 F9000 X75.192 Y85.374
G1 F1800 X143.755 Y153.937 E246.87382
G0 F9000 X144.321 Y153.937
G1 F1800 X75.389 Y85.006 E250.11615
G0 F9000 X75.615 Y84.666
G1 F1800 X144.886 Y153.937 E253.37445
G0 F9000 X145.452 Y153.937
G1 F1800 X75.869 Y84.355 E256.64739
G0 F9000 X76.124 Y84.043
G1 F1800 X146.018 Y153.937 E259.93499
G0 F9000 X146.583 Y153.937
G1 F1800 X76.378 Y83.732 E263.23722
G0 F9000 X76.656 Y83.444
G1 F1800 X147.149 Y153.937 E266.553
G0 F9000 X147.715 Y153.937
G1 F1800 X76.967 Y83.189 E269.88076
G0 F9000 X77.277 Y82.934
G1 F1800 X148.28 Y153.937 E273.22053
G0 F9000 X148.846 Y153.937
G1 F1800 X77.588 Y82.679 E276.57229
G0 F9000 X77.913 Y82.439
G1 F1800 X149.412 Y153.937 E279.93536
G0 F9000 X149.978 Y153.937
G1 F1800 X78.282 Y82.242 E283.30769
G0 F9000 X78.65 Y82.044
G1 F1800 X150.543 Y153.937 E286.68932
G0 F9000 X151.109 Y153.937
G1 F1800 X79.019 Y81.847 E290.08021
G0 F9000 X79.408 Y81.671
G1 F1800 X151.675 Y153.937 E293.47941
G0 F9000 X152.24 Y153.937
G1 F1800 X79.842 Y81.54 E296.88476
G0 F9000 X80.276 Y81.407
G1 F1800 X152.771 Y153.903 E300.29473
G0 F9000 X153.287 Y153.853
G1 F1800 X80.71 Y81.276 E303.70853
G0 F9000 X81.197 Y81.197
G1 F1800 X153.802 Y153.802 E307.12364
G0 F9000 X154.289 Y153.723
G1 F1800 X81.711 Y81.146 E310.53747
G0 F9000 X82.226 Y81.095
G1 F1800 X154.722 Y153.591 E313.94746
G0 F9000 X155.156 Y153.459
G1 F1800 X82.756 Y81.059 E317.35293
G0 F9000 X83.322 Y81.059
G1 F1800 X155.59 Y153.327 E320.7522
