;FLAVOR:Marlin
;TIME:6707
;Filament used: 5.8226m
;Layer height: 0.2
;MINX:72.7
;MINY:79.7
;MINZ:0.2
;MAXX:162.3
;MAXY:155.3
;MAXZ:7.84
;Generated with Cura_SteamEngine main
M140 S50
M105
M190 S50
M104 S200
M105
M109 S200
M82 ;absolute extrusion mode
; Ender 3 Custom Start G-code
G92 E0 ; Reset Extruder
G28 ; Home all axes
M420 S1 Z2 ;Enable ABL using saved Mesh and Fade Height
G1 Z2.0 F3000 ; Move Z Axis up little to prevent scratching of Heat Bed
G1 X0.1 Y20 Z0.3 F5000.0 ; Move to start position
G1 X0.1 Y200.0 Z0.3 F1500.0 E15 ; Draw the first line
G1 X0.4 Y200.0 Z0.3 F5000.0 ; Move to side a little
G1 X0.4 Y20 Z0.3 F1500.0 E30 ; Draw the second line
G92 E0 ; Reset Extruder
G1 Z2.0 F3000 ; Move Z Axis up little to prevent scratching of Heat Bed
G1 X5 Y20 Z0.3 F5000.0 ; Move over to prevent blob squish
G92 E0
G92 E0
G1 F1500 E-6
;LAYER_COUNT:36
;LAYER:0
M107
;MESH:top.stl
G0 F9000 X114.574 Y101.197 Z0.2
;TYPE:WALL-INNER
G1 F1500 E0
G1 F1800 X114.25 Y101.25 E0.01092
G1 X99.662 Y101.247 E0.49612
G1 X99.43 Y101.198 E0.504
G1 X99.105 Y101.016 E0.51639
G1 X98.853 Y100.694 E0.52999
G1 X98.751 Y100.31 E0.54321
G1 X98.75 Y85.641 E1.0311
G1 X98.888 Y85.241 E1.04517
G1 X99.025 Y85.06 E1.05273
G1 X99.221 Y84.9 E1.06114
G1 X99.47 Y84.789 E1.07021
G1 X99.75 Y84.75 E1.07961
G1 X114.25 Y84.75 E1.56188
G1 X114.542 Y84.793 E1.5717
G1 X114.798 Y84.913 E1.5811
G1 X114.996 Y85.083 E1.58978
G1 X115.13 Y85.274 E1.59754
G1 X115.216 Y85.489 E1.60524
G1 X115.25 Y85.75 E1.614
G1 X115.247 Y100.338 E2.0992
G1 X115.15 Y100.688 E2.11128
G1 X114.967 Y100.948 E2.12185
G1 X114.815 Y101.076 E2.12846
G1 X114.574 Y101.197 E2.13743
G0 F9000 X114.589 Y100.746
G1 F1800 X114.321 Y100.85 E2.14699
G1 X99.697 Y100.848 E2.63339
G1 X99.558 Y100.819 E2.63811
G1 X99.363 Y100.71 E2.64554
G1 X99.212 Y100.517 E2.65369
G1 X99.154 Y100.322 E2.66046
G1 X99.15 Y85.682 E3.14739
G1 X99.233 Y85.445 E3.15574
G1 X99.432 Y85.24 E3.16524
G1 X99.633 Y85.15 E3.17257
G1 X114.25 Y85.15 E3.65873
G1 X114.426 Y85.176 E3.66465
G1 X114.698 Y85.35 E3.67539
G1 X114.85 Y85.63 E3.68598
G1 X114.848 Y100.303 E4.17401
G1 X114.79 Y100.513 E4.18126
G1 X114.589 Y100.746 E4.19149
G0 F9000 X114.363 Y100.416
;TYPE:WALL-OUTER
G1 F1800 X114.284 Y100.448 E4.19432
G1 X99.68 Y100.45 E4.68006
G1 X99.57 Y100.339 E4.68525
G1 X99.55 Y100.262 E4.6879
G1 X99.552 Y85.665 E5.1734
G1 X99.715 Y85.552 E5.17999
G1 X114.296 Y85.55 E5.66496
G1 X114.4 Y85.616 E5.66906
G1 X114.45 Y85.708 E5.67254
G1 X114.445 Y100.298 E6.15781
G1 X114.363 Y100.416 E6.16258
G1 F1500 E0.16258
G0 F9000 X114.363 Y101.15
G0 X112.113 Y101.41
G0 X119.59 Y98.113
G0 X119.922 Y101.078
G0 X120.426 Y101.197
;TYPE:WALL-INNER
G1 F1500 E6.16258
G1 F1800 X120.185 Y101.076 E6.17155
G1 X120.033 Y100.948 E6.17816
G1 X119.85 Y100.688 E6.18874
G1 X119.753 Y100.338 E6.20082
G1 X119.75 Y85.75 E6.68602
G1 X119.784 Y85.489 E6.69477
G1 X119.87 Y85.274 E6.70247
G1 X120.004 Y85.083 E6.71023
G1 X120.202 Y84.913 E6.71891
G1 X120.458 Y84.793 E6.72832
G1 X120.75 Y84.75 E6.73813
G1 X135.25 Y84.75 E7.2204
G1 X135.531 Y84.789 E7.22984
G1 X135.779 Y84.9 E7.23888
G1 X135.975 Y85.06 E7.24729
G1 X136.112 Y85.242 E7.25487
G1 X136.25 Y85.642 E7.26894
G1 X136.247 Y100.333 E7.75757
G1 X136.183 Y100.613 E7.76712
G1 X135.985 Y100.929 E7.77952
G1 X135.815 Y101.076 E7.787
G1 X135.574 Y101.197 E7.79597
G1 X135.419 Y101.236 E7.80128
G1 X135.25 Y101.25 E7.80692
G1 X120.662 Y101.247 E8.29212
G1 X120.426 Y101.197 E8.30015
G0 F9000 X120.411 Y100.746
G1 F1800 X120.21 Y100.513 E8.31038
G1 X120.152 Y100.303 E8.31763
G1 X120.15 Y85.63 E8.80565
G1 X120.302 Y85.349 E8.81628
G1 X120.614 Y85.15 E8.82859
G1 X135.368 Y85.15 E9.31931
G1 X135.568 Y85.24 E9.3266
G1 X135.768 Y85.445 E9.33613
G1 X135.85 Y85.682 E9.34447
G1 X135.849 Y100.3 E9.83067
G1 X135.81 Y100.468 E9.8364
G1 X135.691 Y100.658 E9.84386
G1 X135.589 Y100.746 E9.84834
G1 X135.352 Y100.842 E9.85684
G1 X135.25 Y100.85 E9.86025
G1 X120.697 Y100.848 E10.34428
G1 X120.411 Y100.746 E10.35438
G0 F9000 X120.637 Y100.416
;TYPE:WALL-OUTER
G1 F1800 X120.555 Y100.298 E10.35916
G1 X120.55 Y85.708 E10.84443
G1 X120.6 Y85.616 E10.84791
G1 X120.715 Y85.552 E10.85229
G1 X135.292 Y85.55 E11.33712
G1 X135.448 Y85.667 E11.3436
G1 X135.448 Y100.285 E11.8298
G1 X135.411 Y100.37 E11.83288
G1 X135.284 Y100.448 E11.83784
G1 X120.732 Y100.45 E12.32184
G1 X120.637 Y100.416 E12.3252
G1 F1500 E6.3252
G0 F9000 X120.637 Y101.15
G0 X120.75 Y101.431
G0 X120.75 Y108.569
G0 X119.922 Y108.922
G0 X119.922 Y125.078
G0 X120.392 Y125.185
;TYPE:WALL-INNER
G1 F1500 E12.3252
G1 F1800 X120.142 Y125.045 E12.33473
G1 X119.996 Y124.908 E12.34139
G1 X119.833 Y124.65 E12.35154
G1 X119.753 Y124.338 E12.36225
G1 X119.75 Y109.75 E12.84745
G1 X119.778 Y109.513 E12.85539
G1 X119.85 Y109.311 E12.86252
G1 X120.033 Y109.051 E12.87309
G1 X120.185 Y108.924 E12.87968
G1 X120.426 Y108.803 E12.88865
G1 X120.662 Y108.753 E12.89668
G1 X135.25 Y108.75 E13.38187
G1 X135.574 Y108.803 E13.39279
G1 X135.815 Y108.924 E13.40176
G1 X135.967 Y109.051 E13.40835
G1 X136.15 Y109.311 E13.41893
G1 X136.222 Y109.513 E13.42606
G1 X136.25 Y109.75 E13.434
G1 X136.247 Y124.338 E13.9192
G1 X136.167 Y124.65 E13.92991
G1 X136.004 Y124.908 E13.94006
G1 X135.858 Y125.045 E13.94672
G1 X135.608 Y125.185 E13.95625
G1 X135.438 Y125.233 E13.96212
G1 X135.25 Y125.25 E13.9684
G1 X120.663 Y125.247 E14.45357
G1 X120.392 Y125.185 E14.46281
G0 F9000 X120.535 Y124.811
G1 F1800 X120.297 Y124.645 E14.47246
G1 X120.199 Y124.49 E14.47856
G1 X120.152 Y124.303 E14.48498
G1 X120.15 Y109.644 E14.97254
G1 X120.265 Y109.395 E14.98166
G1 X120.411 Y109.254 E14.98841
G1 X120.697 Y109.152 E14.99851
G1 X135.321 Y109.15 E15.48491
G1 X135.589 Y109.254 E15.49447
G1 X135.735 Y109.395 E15.50122
G1 X135.85 Y109.644 E15.51034
G1 X135.848 Y124.303 E15.9979
G1 X135.801 Y124.49 E16.00431
G1 X135.615 Y124.727 E16.01433
G1 X135.363 Y124.84 E16.02352
G1 X135.25 Y124.85 E16.02729
G1 X120.697 Y124.848 E16.51133
G1 X120.535 Y124.811 E16.51685
G0 F9000 X120.614 Y124.398
;TYPE:WALL-OUTER
G1 F1800 X120.55 Y124.268 E16.52167
G1 X120.555 Y109.702 E17.00614
G1 X120.637 Y109.584 E17.01092
G1 X120.732 Y109.55 E17.01428
G1 X135.284 Y109.552 E17.49828
G1 X135.363 Y109.584 E17.50111
G1 X135.445 Y109.702 E17.50589
G1 X135.45 Y124.268 E17.99036
G1 X135.386 Y124.398 E17.99518
G1 X135.288 Y124.447 E17.99882
G1 X120.732 Y124.45 E18.48296
G1 X120.614 Y124.398 E18.48725
G1 F1500 E12.48725
G0 F9000 X120.614 Y125.15
G0 X119.922 Y125.078
G0 X119.59 Y122.113
G0 X112.113 Y125.41
G0 X114.375 Y125.25
;TYPE:WALL-INNER
G1 F1500 E18.48725
G1 F1800 X99.662 Y125.247 E18.9766
G1 X99.454 Y125.206 E18.98365
G1 X99.223 Y125.101 E18.99209
G1 X99.062 Y124.977 E18.99885
G1 X98.854 Y124.696 E19.01048
G1 X98.753 Y124.33 E19.02311
G1 X98.751 Y109.69 E19.51004
G1 X98.829 Y109.359 E19.52135
G1 X98.947 Y109.153 E19.52924
G1 X99.191 Y108.92 E19.54046
G1 X99.43 Y108.802 E19.54933
G1 X99.662 Y108.753 E19.55722
G1 X114.25 Y108.75 E20.04242
G1 X114.574 Y108.803 E20.05333
G1 X114.815 Y108.924 E20.0623
G1 X114.967 Y109.051 E20.06889
G1 X115.15 Y109.311 E20.07947
G1 X115.222 Y109.513 E20.0866
G1 X115.25 Y109.75 E20.09454
G1 X115.247 Y124.338 E20.57974
G1 X115.167 Y124.65 E20.59045
G1 X115.004 Y124.908 E20.6006
G1 X114.858 Y125.045 E20.60726
G1 X114.597 Y125.188 E20.61716
G1 X114.375 Y125.25 E20.62482
G0 F9000 X114.459 Y124.813
G1 F1800 X114.25 Y124.85 E20.63188
G1 X99.697 Y124.848 E21.11592
G1 X99.497 Y124.795 E21.1228
G1 X99.263 Y124.602 E21.13289
G1 X99.151 Y124.365 E21.14161
G1 X99.151 Y109.714 E21.6289
G1 X99.197 Y109.515 E21.63569
G1 X99.363 Y109.29 E21.64499
G1 X99.558 Y109.181 E21.65242
G1 X99.697 Y109.152 E21.65715
G1 X114.321 Y109.15 E22.14354
G1 X114.589 Y109.254 E22.1531
G1 X114.735 Y109.395 E22.15985
G1 X114.85 Y109.644 E22.16898
G1 X114.848 Y124.303 E22.65654
G1 X114.801 Y124.49 E22.66295
G1 X114.703 Y124.645 E22.66905
G1 X114.459 Y124.813 E22.6789
G0 F9000 X114.386 Y124.398
;TYPE:WALL-OUTER
G1 F1800 X114.287 Y124.447 E22.68258
G1 X99.704 Y124.45 E23.16761
G1 X99.612 Y124.396 E23.17116
G1 X99.55 Y124.266 E23.17595
G1 X99.55 Y109.738 E23.65915
G1 X99.621 Y109.596 E23.66443
G1 X99.732 Y109.55 E23.66843
G1 X114.284 Y109.552 E24.15243
G1 X114.363 Y109.584 E24.15526
G1 X114.445 Y109.702 E24.16004
G1 X114.45 Y124.268 E24.64451
G1 X114.386 Y124.398 E24.64933
G1 F1500 E18.64933
G0 F9000 X114.386 Y125.15
G0 X114.466 Y125.411
G0 X119.569 Y132.751
G0 X119.922 Y148.078
G0 X120.578 Y148.25
;TYPE:WALL-INNER
G1 F1500 E24.64933
G1 F1800 X120.138 Y148.042 E24.66552
G1 X119.861 Y147.749 E24.67893
G1 X119.75 Y147.376 E24.69187
G1 X119.75 Y132.75 E25.17833
G1 X119.821 Y132.378 E25.19093
G1 X119.935 Y132.169 E25.19885
G1 X120.142 Y131.955 E25.20875
G1 X120.392 Y131.815 E25.21828
G1 X120.663 Y131.753 E25.22753
G1 X135.392 Y131.75 E25.71742
G1 X135.748 Y131.882 E25.73004
G1 X135.953 Y132.038 E25.73861
G1 X136.102 Y132.224 E25.74654
G1 X136.216 Y132.487 E25.75607
G1 X136.247 Y132.668 E25.76218
G1 X136.25 Y147.336 E26.25004
G1 X136.174 Y147.636 E26.26033
G1 X135.992 Y147.921 E26.27158
G1 X135.674 Y148.157 E26.28475
G1 X135.423 Y148.236 E26.2935
G1 X135.25 Y148.25 E26.29928
G1 X120.578 Y148.25 E26.78727
G0 F9000 X120.647 Y147.85
G1 F1800 X120.382 Y147.725 E26.79701
G1 X120.253 Y147.588 E26.80327
G1 X120.15 Y147.327 E26.81261
G1 X120.15 Y132.75 E27.29744
G1 X120.192 Y132.526 E27.30502
G1 X120.317 Y132.334 E27.31264
G1 X120.451 Y132.229 E27.3183
G1 X120.697 Y132.152 E27.32687
G1 X135.336 Y132.15 E27.81377
G1 X135.655 Y132.306 E27.82558
G1 X135.792 Y132.49 E27.83321
G1 X135.849 Y132.701 E27.84048
G1 X135.846 Y147.321 E28.32674
G1 X135.804 Y147.482 E28.33228
G1 X135.696 Y147.653 E28.339
G1 X135.504 Y147.794 E28.34693
G1 X135.354 Y147.842 E28.35217
G1 X135.25 Y147.85 E28.35563
G1 X120.647 Y147.85 E28.84133
G0 F9000 X120.685 Y147.45
;TYPE:WALL-OUTER
G1 F1800 X120.552 Y147.285 E28.84838
G1 X120.554 Y132.708 E29.33321
G1 X120.65 Y132.576 E29.33864
G1 X120.732 Y132.55 E29.3415
G1 X135.288 Y132.553 E29.82564
G1 X135.421 Y132.644 E29.831
G1 X135.45 Y132.733 E29.83411
G1 X135.449 Y147.274 E30.31775
G1 X135.399 Y147.385 E30.3218
G1 X135.285 Y147.448 E30.32613
G1 X120.685 Y147.45 E30.81173
G1 F1500 E24.81173
G0 F9000 X120.685 Y148.15
G0 X119.922 Y148.078
G0 X119.59 Y145.113
G0 X115.43 Y148.583
G0 X115.078 Y150.078
G0 X114.535 Y150.21
;TYPE:WALL-INNER
G1 F1500 E30.81173
G1 F1800 X114.25 Y150.25 E30.8213
G1 X99.75 Y150.25 E31.30357
G1 X99.458 Y150.207 E31.31339
G1 X99.202 Y150.087 E31.32279
G1 X99.004 Y149.917 E31.33147
G1 X98.87 Y149.726 E31.33923
G1 X98.784 Y149.511 E31.34693
G1 X98.75 Y149.25 E31.35569
G1 X98.75 Y134.614 E31.84248
G1 X98.822 Y134.375 E31.85078
G1 X98.971 Y134.121 E31.86058
G1 X99.113 Y133.978 E31.86728
G1 X99.328 Y133.842 E31.87574
G1 X99.662 Y133.753 E31.88724
G1 X114.375 Y133.75 E32.3766
G1 X114.809 Y133.92 E32.3921
G1 X115.077 Y134.187 E32.40468
G1 X115.25 Y134.593 E32.41936
G1 X115.251 Y149.25 E32.90685
G1 X115.201 Y149.561 E32.91733
G1 X114.982 Y149.932 E32.93166
G1 X114.786 Y150.095 E32.94014
G1 X114.535 Y150.21 E32.94932
G0 F9000 X114.382 Y149.85
G1 F1800 X99.75 Y149.85 E33.43598
G1 X99.574 Y149.824 E33.4419
G1 X99.302 Y149.65 E33.45264
G1 X99.17 Y149.407 E33.46184
G1 X99.15 Y149.25 E33.4671
G1 X99.15 Y134.659 E33.9524
G1 X99.236 Y134.439 E33.96026
G1 X99.434 Y134.239 E33.96962
G1 X99.697 Y134.152 E33.97883
G1 X114.25 Y134.15 E34.46287
G1 X114.459 Y134.187 E34.46992
G1 X114.586 Y134.252 E34.47467
G1 X114.747 Y134.412 E34.48222
G1 X114.85 Y134.656 E34.49103
G1 X114.851 Y149.25 E34.97643
G1 X114.821 Y149.437 E34.98273
G1 X114.69 Y149.659 E34.9913
G1 X114.382 Y149.85 E35.00335
G0 F9000 X114.397 Y149.387
;TYPE:WALL-OUTER
G1 F1800 X114.285 Y149.448 E35.0076
G1 X99.704 Y149.45 E35.49256
G1 X99.6 Y149.384 E35.49666
G1 X99.55 Y149.25 E35.50141
G1 X99.553 Y134.71 E35.98502
G1 X99.644 Y134.579 E35.99032
G1 X99.732 Y134.55 E35.9934
G1 X114.287 Y134.553 E36.47751
G1 X114.416 Y134.637 E36.48263
G1 X114.446 Y134.709 E36.48522
G1 X114.451 Y149.296 E36.97039
G1 X114.397 Y149.387 E36.9739
G1 F1500 E30.9739
G0 F9000 X115.15 Y149.387
G0 X115.078 Y150.078
G0 X105.702 Y150.41
G0 X91.113 Y150.41
G0 X93.542 Y150.207
;TYPE:WALL-INNER
G1 F1500 E36.9739
G1 F1800 X93.423 Y150.236 E36.97798
G1 X93.25 Y150.25 E36.98375
G1 X78.669 Y150.248 E37.46872
G1 X78.336 Y150.161 E37.48016
G1 X78.115 Y150.024 E37.48881
G1 X77.976 Y149.885 E37.49535
G1 X77.838 Y149.663 E37.50405
G1 X77.752 Y149.331 E37.51545
G1 X77.75 Y134.75 E38.00042
G1 X77.789 Y134.469 E38.00985
G1 X77.9 Y134.221 E38.01889
G1 X78.06 Y134.025 E38.02731
G1 X78.242 Y133.888 E38.03488
G1 X78.642 Y133.75 E38.04896
G1 X93.359 Y133.749 E38.53845
G1 X93.777 Y133.899 E38.55322
G1 X94.029 Y134.121 E38.56439
G1 X94.178 Y134.375 E38.57418
G1 X94.25 Y134.614 E38.58248
G1 X94.247 Y149.338 E39.07221
G1 X94.13 Y149.726 E39.08568
G1 X93.996 Y149.917 E39.09344
G1 X93.798 Y150.087 E39.10212
G1 X93.542 Y150.207 E39.11153
G0 F9000 X93.579 Y149.753
G1 F1800 X93.354 Y149.842 E39.11958
G1 X93.25 Y149.85 E39.12304
G1 X78.701 Y149.849 E39.60695
G1 X78.502 Y149.797 E39.61379
G1 X78.285 Y149.631 E39.62287
G1 X78.203 Y149.498 E39.62807
G1 X78.151 Y149.299 E39.63491
G1 X78.15 Y134.632 E40.12274
G1 X78.24 Y134.432 E40.13003
G1 X78.445 Y134.232 E40.13956
G1 X78.682 Y134.15 E40.1479
G1 X93.297 Y134.151 E40.634
G1 X93.457 Y134.186 E40.63944
G1 X93.673 Y134.323 E40.64795
G1 X93.764 Y134.439 E40.65286
G1 X93.85 Y134.659 E40.66071
G1 X93.848 Y149.303 E41.14777
G1 X93.778 Y149.536 E41.15587
G1 X93.579 Y149.753 E41.16566
G0 F9000 X93.36 Y149.418
;TYPE:WALL-OUTER
G1 F1800 X93.285 Y149.448 E41.16834
G1 X78.733 Y149.45 E41.65235
G1 X78.608 Y149.392 E41.65693
G1 X78.55 Y149.267 E41.66151
G1 X78.55 Y134.708 E42.14575
G1 X78.667 Y134.552 E42.15223
G1 X93.317 Y134.55 E42.63949
G1 X93.447 Y134.71 E42.64635
G1 X93.45 Y149.268 E43.13055
G1 X93.36 Y149.418 E43.13637
G1 F1500 E37.13637
G0 F9000 X93.36 Y150.15
G0 X82.635 Y150.43
G0 X82.33 Y153.495
G0 X82.551 Y153.7
;TYPE:WALL-INNER
G1 F1500 E43.13637
G1 F1800 X152.449 Y153.7 E45.46119
G1 X154.096 Y153.537 E45.51623
G1 X155.637 Y153.069 E45.5698
G1 X157.05 Y152.313 E45.6231
G1 X158.296 Y151.292 E45.67668
G1 X159.313 Y150.05 E45.73007
G1 X160.071 Y148.633 E45.78352
G1 X160.537 Y147.096 E45.83694
G1 X160.7 Y145.449 E45.89198
G1 X160.7 Y89.977 E47.73699
G1 X160.7 Y89.549 E47.75123
G1 X160.537 Y87.904 E47.80621
G1 X160.069 Y86.364 E47.85974
G1 X159.313 Y84.95 E47.91307
G1 X158.292 Y83.704 E47.96665
G1 X157.05 Y82.687 E48.02004
G1 X155.636 Y81.931 E48.07337
G1 X154.096 Y81.463 E48.1269
G1 X152.449 Y81.3 E48.18195
G1 X82.551 Y81.3 E50.50677
G1 X80.904 Y81.463 E50.56181
G1 X79.364 Y81.931 E50.61535
G1 X77.95 Y82.687 E50.66868
G1 X76.704 Y83.708 E50.72225
G1 X75.687 Y84.949 E50.77562
G1 X74.929 Y86.367 E50.8291
G1 X74.463 Y87.904 E50.88252
G1 X74.3 Y89.551 E50.93756
G1 X74.3 Y145.451 E52.79681
G1 X74.463 Y147.096 E52.85179
G1 X74.929 Y148.633 E52.90521
G1 X75.687 Y150.05 E52.95865
G1 X76.704 Y151.292 E53.01205
G1 X77.95 Y152.313 E53.06562
G1 X79.364 Y153.069 E53.11895
G1 X80.904 Y153.536 E53.17248
G1 X82.551 Y153.7 E53.22753
G0 F9000 X82.531 Y154.1
G1 F1800 X152.469 Y154.1 E55.55368
G1 X154.175 Y153.931 E55.61069
G1 X155.791 Y153.441 E55.66686
G1 X157.274 Y152.647 E55.72281
G1 X158.58 Y151.576 E55.77899
G1 X159.647 Y150.274 E55.83497
G1 X160.442 Y148.787 E55.89106
G1 X160.931 Y147.175 E55.94708
G1 X161.1 Y145.469 E56.0041
G1 X161.1 Y89.977 E57.84978
G1 X161.1 Y89.529 E57.86468
G1 X160.931 Y87.825 E57.92163
G1 X160.441 Y86.21 E57.97776
G1 X159.647 Y84.726 E58.03374
G1 X158.576 Y83.42 E58.08992
G1 X157.274 Y82.353 E58.14591
G1 X155.79 Y81.559 E58.20188
G1 X154.175 Y81.069 E58.25802
G1 X152.469 Y80.9 E58.31504
G1 X82.531 Y80.9 E60.64118
G1 X80.825 Y81.069 E60.6982
G1 X79.21 Y81.559 E60.75434
G1 X77.726 Y82.353 E60.81032
G1 X76.42 Y83.424 E60.86649
G1 X75.353 Y84.726 E60.92248
G1 X74.558 Y86.213 E60.97856
G1 X74.069 Y87.825 E61.03459
G1 X73.9 Y89.531 E61.09161
G1 X73.9 Y145.471 E62.95218
G1 X74.069 Y147.175 E63.00914
G1 X74.558 Y148.787 E63.06516
G1 X75.353 Y150.274 E63.12125
G1 X76.42 Y151.576 E63.17723
G1 X77.727 Y152.647 E63.23344
G1 X79.21 Y153.44 E63.28937
