;FLAVOR:Marlin
;TIME:372
;Filament used: 0.280007m
;Layer height: 0.2
;MINX:99.7
;MINY:112.7
;MINZ:0.2
;MAXX:135.3
;MAXY:122.3
;MAXZ:1.88
;Generated with Cura_SteamEngine main
M140 S50
M105
M190 S50
M104 S200
M105
M109 S200
M82 ;absolute extrusion mode
; Ender 3 Custom Start G-code
G92 E0 ; Reset Extruder
G28 ; Home all axes
M420 S1 Z2 ;Enable ABL using saved Mesh and Fade Height
G1 Z2.0 F3000 ; Move Z Axis up little to prevent scratching of Heat Bed
G1 X0.1 Y20 Z0.3 F5000.0 ; Move to start position
G1 X0.1 Y200.0 Z0.3 F1500.0 E15 ; Draw the first line
G1 X0.4 Y200.0 Z0.3 F5000.0 ; Move to side a little
G1 X0.4 Y20 Z0.3 F1500.0 E30 ; Draw the second line
G92 E0 ; Reset Extruder
G1 Z2.0 F3000 ; Move Z Axis up little to prevent scratching of Heat Bed
G1 X5 Y20 Z0.3 F5000.0 ; Move over to prevent blob squish
G92 E0
G92 E0
G1 F1500 E-6
;LAYER_COUNT:9
;LAYER:0
M107
;MESH:teensyClamp.stl
G0 F9000 X100.501 Y121.499 Z0.2
;TYPE:WALL-INNER
G1 F1500 E0
G1 F1800 X134.5 Y121.5 E1.13081
G1 X134.5 Y115.016 E1.34647
G1 X134.5 Y113.5 E1.39689
G1 X100.501 Y113.501 E2.5277
G1 X100.501 Y121.499 E2.79372
G0 F9000 X100.101 Y121.899
G1 F1800 X134.9 Y121.9 E3.95114
G1 X134.9 Y115.016 E4.1801
G1 X134.9 Y113.1 E4.24383
G1 X100.101 Y113.101 E5.40125
G1 X100.101 Y121.899 E5.69387
G0 F9000 X99.701 Y122.299
;TYPE:WALL-OUTER
G1 F1800 X135.3 Y122.3 E6.8779
G1 X135.3 Y115.016 E7.12016
G1 X135.3 Y112.7 E7.19719
G1 X99.701 Y112.701 E8.38122
G1 X99.701 Y122.299 E8.70045
G1 F1500 E2.70045
G0 F9000 X99.97 Y122.03
G0 X102.898 Y121.3
G0 X103.601 Y119.482
G0 X104.378 Y119.493
;TYPE:WALL-INNER
G1 F1500 E8.70045
G1 F1800 X103.903 Y119.407 E8.71651
G1 X103.676 Y119.32 E8.72459
G1 X103.27 Y119.073 E8.7404
G1 X103.06 Y118.886 E8.74975
G1 X102.72 Y118.442 E8.76835
G1 X102.542 Y117.91 E8.78701
G1 X102.496 Y117.539 E8.79944
G1 X102.547 Y117.006 E8.81725
G1 X102.792 Y116.464 E8.83704
G1 X103.06 Y116.114 E8.8517
G1 X103.27 Y115.927 E8.86105
G1 X103.761 Y115.628 E8.88017
G1 X104.205 Y115.521 E8.89536
G1 X104.756 Y115.503 E8.9137
G1 X105.324 Y115.68 E8.93349
G1 X105.73 Y115.927 E8.94929
G1 X106.073 Y116.27 E8.96543
G1 X106.319 Y116.675 E8.98119
G1 X106.466 Y117.145 E8.99756
G1 X106.5 Y117.5 E9.00943
G1 X106.466 Y117.855 E9.02129
G1 X106.319 Y118.325 E9.03767
G1 X106.073 Y118.73 E9.05343
G1 X105.73 Y119.073 E9.06956
G1 X105.239 Y119.372 E9.08868
G1 X104.795 Y119.479 E9.10387
G1 X104.378 Y119.493 E9.11775
G0 F9000 X104.726 Y119.085
G1 F1800 X104.378 Y119.093 E9.12933
G1 X103.999 Y119.018 E9.14218
G1 X103.863 Y118.966 E9.14702
G1 X103.536 Y118.774 E9.15963
G1 X103.336 Y118.596 E9.16854
G1 X103.079 Y118.252 E9.18282
G1 X102.936 Y117.841 E9.19729
G1 X102.903 Y117.571 E9.20634
G1 X102.936 Y117.118 E9.22145
G1 X103.122 Y116.691 E9.23694
G1 X103.336 Y116.404 E9.24884
G1 X103.536 Y116.226 E9.25775
G1 X103.918 Y116.002 E9.27248
G1 X104.274 Y115.915 E9.28467
G1 X104.704 Y115.905 E9.29897
G1 X105.137 Y116.034 E9.314
G1 X105.464 Y116.226 E9.32661
G1 X105.648 Y116.389 E9.33479
G1 X105.878 Y116.691 E9.34741
G1 X106.059 Y117.109 E9.36256
G1 X106.1 Y117.5 E9.37564
G1 X106.059 Y117.891 E9.38872
G1 X105.878 Y118.309 E9.40387
G1 X105.648 Y118.611 E9.41649
G1 X105.464 Y118.774 E9.42467
G1 X105.082 Y118.998 E9.4394
G1 X104.726 Y119.085 E9.45159
G0 F9000 X104.905 Y118.63
;TYPE:WALL-OUTER
G1 F1800 X104.657 Y118.691 E9.46008
G1 X104.329 Y118.688 E9.47099
G1 X104.095 Y118.63 E9.47901
G1 X103.84 Y118.501 E9.48851
G1 X103.612 Y118.306 E9.49849
G1 X103.438 Y118.062 E9.50846
G1 X103.33 Y117.772 E9.51875
G1 X103.301 Y117.476 E9.52864
G1 X103.341 Y117.191 E9.53822
G1 X103.451 Y116.919 E9.54797
G1 X103.585 Y116.725 E9.55582
G1 X103.819 Y116.51 E9.56639
G1 X104.095 Y116.37 E9.57668
G1 X104.343 Y116.309 E9.58517
G1 X104.671 Y116.312 E9.59608
G1 X104.905 Y116.37 E9.6041
G1 X105.16 Y116.499 E9.61361
G1 X105.383 Y116.689 E9.62335
G1 X105.549 Y116.919 E9.63278
G1 X105.669 Y117.215 E9.64341
G1 X105.699 Y117.524 E9.65373
G1 X105.659 Y117.809 E9.66331
G1 X105.549 Y118.081 E9.67306
G1 X105.415 Y118.275 E9.68091
G1 X105.181 Y118.49 E9.69148
G1 X104.905 Y118.63 E9.70177
G1 F1500 E3.70177
G0 F9000 X105.073 Y119.309
G0 X106.032 Y119.046
G0 X128.968 Y119.046
G0 X130.378 Y119.493
;TYPE:WALL-INNER
G1 F1500 E9.70177
G1 F1800 X129.903 Y119.407 E9.71782
G1 X129.676 Y119.32 E9.72591
G1 X129.27 Y119.073 E9.74172
G1 X128.927 Y118.73 E9.75785
G1 X128.681 Y118.325 E9.77361
G1 X128.534 Y117.855 E9.78999
G1 X128.5 Y117.5 E9.80185
G1 X128.534 Y117.145 E9.81371
G1 X128.681 Y116.675 E9.83009
G1 X128.927 Y116.27 E9.84585
G1 X129.27 Y115.927 E9.86199
G1 X129.761 Y115.628 E9.88111
G1 X130.205 Y115.521 E9.8963
G1 X130.756 Y115.503 E9.91463
G1 X131.324 Y115.68 E9.93442
G1 X131.73 Y115.927 E9.95023
G1 X131.94 Y116.114 E9.95958
G1 X132.207 Y116.464 E9.97422
G1 X132.319 Y116.675 E9.98217
G1 X132.466 Y117.145 E9.99854
G1 X132.504 Y117.539 E10.01171
G1 X132.458 Y117.91 E10.02414
G1 X132.319 Y118.325 E10.0387
G1 X132.207 Y118.536 E10.04665
G1 X131.94 Y118.886 E10.06129
G1 X131.73 Y119.073 E10.07064
G1 X131.239 Y119.372 E10.08976
G1 X130.795 Y119.479 E10.10495
G1 X130.378 Y119.493 E10.11883
G0 F9000 X130.296 Y119.095
G1 F1800 X129.863 Y118.966 E10.13385
G1 X129.536 Y118.774 E10.14647
G1 X129.352 Y118.611 E10.15464
G1 X129.122 Y118.309 E10.16727
G1 X128.941 Y117.891 E10.18242
G1 X128.9 Y117.5 E10.19549
G1 X128.941 Y117.109 E10.20857
G1 X129.122 Y116.691 E10.22372
G1 X129.352 Y116.389 E10.23635
G1 X129.536 Y116.226 E10.24452
G1 X129.918 Y116.002 E10.25925
G1 X130.274 Y115.915 E10.27144
G1 X130.704 Y115.905 E10.28575
G1 X131.137 Y116.034 E10.30077
G1 X131.464 Y116.226 E10.31339
G1 X131.664 Y116.404 E10.32229
G1 X131.878 Y116.692 E10.33422
G1 X132.059 Y117.108 E10.34931
G1 X132.1 Y117.5 E10.36242
G1 X132.064 Y117.841 E10.37383
G1 X131.921 Y118.25 E10.38824
G1 X131.664 Y118.596 E10.40257
G1 X131.464 Y118.774 E10.41148
G1 X131.082 Y118.998 E10.42621
G1 X130.726 Y119.085 E10.4384
G1 X130.296 Y119.095 E10.4527
G0 F9000 X130.905 Y118.63
;TYPE:WALL-OUTER
G1 F1800 X130.657 Y118.691 E10.4612
G1 X130.329 Y118.688 E10.47211
G1 X130.095 Y118.63 E10.48012
G1 X129.84 Y118.501 E10.48963
G1 X129.801 Y118.474 E10.49121
G1 X129.585 Y118.275 E10.50098
G1 X129.451 Y118.081 E10.50882
G1 X129.331 Y117.785 E10.51944
G1 X129.301 Y117.476 E10.52977
G1 X129.341 Y117.191 E10.53934
G1 X129.451 Y116.919 E10.5491
G1 X129.585 Y116.725 E10.55694
G1 X129.819 Y116.51 E10.56751
G1 X130.095 Y116.37 E10.5778
G1 X130.343 Y116.309 E10.5863
G1 X130.671 Y116.312 E10.59721
G1 X130.905 Y116.37 E10.60522
G1 X131.16 Y116.499 E10.61473
G1 X131.388 Y116.694 E10.62471
G1 X131.549 Y116.919 E10.63391
G1 X131.659 Y117.191 E10.64367
G1 X131.699 Y117.476 E10.65324
G1 X131.67 Y117.772 E10.66313
G1 X131.571 Y118.039 E10.6726
G1 X131.415 Y118.275 E10.68201
G1 X131.181 Y118.49 E10.69258
G1 X130.905 Y118.63 E10.70288
G0 F9000 X131.073 Y119.309
G0 X129.982 Y119.53
G0 X129.914 Y119.8
;TYPE:SKIN
G1 F1800 X129.41 Y119.601 E10.7209
G1 X128.924 Y119.271 E10.74044
G1 X128.565 Y118.864 E10.75849
G1 X128.282 Y118.338 E10.77835
G1 X128.175 Y117.889 E10.79371
G1 X128.14 Y117.523 E10.80593
G1 X128.175 Y117.112 E10.81965
G1 X128.273 Y116.7 E10.83374
G1 X128.546 Y116.158 E10.85392
G1 X128.929 Y115.725 E10.87315
G1 X129.431 Y115.386 E10.8933
G1 X129.793 Y115.25 E10.90616
G1 X130.142 Y115.166 E10.9181
G1 X130.64 Y115.148 E10.93467
G1 X131.085 Y115.2 E10.94957
G1 X131.629 Y115.421 E10.9691
G1 X131.949 Y115.641 E10.98202
G1 X132.185 Y115.848 E10.99246
G1 X132.516 Y116.28 E11.01056
G1 X132.715 Y116.652 E11.02459
G1 X132.824 Y117.106 E11.04012
G1 X132.864 Y117.536 E11.05449
G1 X132.814 Y117.97 E11.06902
G1 X132.653 Y118.457 E11.08608
G1 X132.517 Y118.718 E11.09587
G1 X132.183 Y119.153 E11.11411
G1 X131.971 Y119.342 E11.12355
G1 X131.592 Y119.606 E11.13892
G1 X131.207 Y119.75 E11.15259
G1 X130.858 Y119.834 E11.16453
G1 X130.384 Y119.853 E11.1803
G1 X129.914 Y119.8 E11.19604
G1 F1500 E5.19604
G0 F9000 X129.983 Y119.53
G0 X128.968 Y119.046
G0 X106.032 Y119.046
G0 X105.115 Y119.505
G1 F1500 E11.19604
G0 F9000 X105.207 Y119.75
G1 F1800 X104.858 Y119.834 E11.20797
G1 X104.384 Y119.853 E11.22375
G1 X103.914 Y119.8 E11.23948
G1 X103.41 Y119.601 E11.25751
G1 X103.05 Y119.358 E11.27195
G1 X102.81 Y119.146 E11.2826
G1 X102.502 Y118.749 E11.29932
G1 X102.33 Y118.425 E11.31152
G1 X102.186 Y117.969 E11.32742
G1 X102.136 Y117.527 E11.34222
G1 X102.174 Y117.112 E11.35608
G1 X102.278 Y116.673 E11.37108
G1 X102.483 Y116.28 E11.38582
G1 X102.789 Y115.877 E11.40265
G1 X103.05 Y115.642 E11.41434
G1 X103.431 Y115.386 E11.4296
G1 X103.793 Y115.25 E11.44246
G1 X104.142 Y115.166 E11.4544
G1 X104.64 Y115.148 E11.47098
G1 X105.087 Y115.2 E11.48595
G1 X105.59 Y115.399 E11.50394
G1 X106.071 Y115.726 E11.52328
G1 X106.462 Y116.175 E11.54308
G1 X106.717 Y116.66 E11.56131
G1 X106.824 Y117.106 E11.57656
G1 X106.86 Y117.498 E11.58966
G1 X106.825 Y117.888 E11.60268
G1 X106.727 Y118.3 E11.61677
G1 X106.454 Y118.842 E11.63695
G1 X106.091 Y119.254 E11.65521
G1 X105.592 Y119.606 E11.67553
G1 X105.207 Y119.75 E11.6892
G1 F1500 E5.6892
G0 F9000 X105.115 Y119.505
G0 X103.15 Y119.208
G0 X102.105 Y121.299
G0 X100.673 Y121.327
G1 F1500 E11.6892
G0 F9000 X100.861 Y121.139
G1 F1800 X134.14 Y121.14 E12.79606
G1 X134.14 Y113.86 E13.03819
G1 X100.862 Y113.862 E14.14503
G1 X100.862 Y117.649 E14.27098
G1 X100.861 Y121.139 E14.38706
G0 F9000 X101.138 Y120.937
G1 F1800 X101.061 Y120.86 E14.39068
G0 F9000 X101.061 Y120.294
G1 F1800 X101.704 Y120.937 E14.42093
G0 F9000 X102.27 Y120.937
G1 F1800 X101.061 Y119.728 E14.47779
G0 F9000 X101.061 Y119.163
G1 F1800 X102.835 Y120.937 E14.56124
G0 F9000 X103.401 Y120.937
G1 F1800 X101.061 Y118.597 E14.6713
G0 F9000 X101.061 Y118.031
G1 F1800 X103.967 Y120.937 E14.80799
G0 F9000 X104.533 Y120.937
G1 F1800 X103.41 Y119.815 E14.86079
G0 F9000 X104.195 Y120.034
G1 F1800 X105.098 Y120.937 E14.90327
G0 F9000 X105.664 Y120.937
G1 F1800 X104.761 Y120.034 E14.94574
G0 F9000 X105.24 Y119.947
G1 F1800 X106.23 Y120.937 E14.99231
G0 F9000 X106.795 Y120.937
G1 F1800 X105.654 Y119.796 E15.04598
G0 F9000 X105.994 Y119.571
G1 F1800 X107.361 Y120.937 E15.11025
G0 F9000 X107.927 Y120.937
G1 F1800 X106.302 Y119.313 E15.18666
G0 F9000 X106.568 Y119.013
G1 F1800 X108.492 Y120.937 E15.27716
G0 F9000 X109.058 Y120.937
G1 F1800 X106.774 Y118.653 E15.3846
G0 F9000 X106.942 Y118.255
G1 F1800 X109.624 Y120.937 E15.51075
G0 F9000 X110.189 Y120.937
G1 F1800 X107.035 Y117.783 E15.6591
G0 F9000 X107.035 Y117.217
G1 F1800 X110.755 Y120.937 E15.83408
G0 F9000 X111.321 Y120.937
G1 F1800 X106.832 Y116.449 E16.04521
G0 F9000 X106.414 Y116.645
G0 X105.376 Y115.595
G0 X105.55 Y115.167
G1 F1800 X104.444 Y114.061 E16.09723
G0 F9000 X103.878 Y114.061
G1 F1800 X104.781 Y114.964 E16.1397
G0 F9000 X104.214 Y114.962
G1 F1800 X103.313 Y114.061 E16.18208
G0 F9000 X102.747 Y114.061
G1 F1800 X103.743 Y115.057 E16.22893
G0 F9000 X103.33 Y115.209
G1 F1800 X102.181 Y114.061 E16.28295
G0 F9000 X101.616 Y114.061
G1 F1800 X102.992 Y115.437 E16.34768
G0 F9000 X102.684 Y115.695
G1 F1800 X101.061 Y114.071 E16.42404
G0 F9000 X101.061 Y114.637
G1 F1800 X102.435 Y116.011 E16.48867
G0 F9000 X102.216 Y116.358
G1 F1800 X101.061 Y115.203 E16.543
G0 F9000 X101.061 Y115.768
G1 F1800 X102.052 Y116.76 E16.58963
G0 F9000 X101.962 Y117.236
G1 F1800 X101.061 Y116.334 E16.63204
G0 F9000 X101.061 Y116.9
G1 F1800 X101.964 Y117.803 E16.67451
G0 F9000 X102.191 Y118.596
G1 F1800 X101.061 Y117.465 E16.72769
G0 F9000 X100.601 Y117.463
G0 X100.673 Y113.673
G0 X105.01 Y113.6
G0 X105.01 Y114.061
G1 F1800 X111.886 Y120.937 E17.05111
G0 F9000 X112.453 Y120.938
G1 F1800 X105.575 Y114.061 E17.37461
G0 F9000 X106.141 Y114.061
G1 F1800 X113.018 Y120.938 E17.69808
G0 F9000 X113.584 Y120.938
G1 F1800 X106.707 Y114.061 E18.02156
G0 F9000 X107.273 Y114.061
G1 F1800 X114.15 Y120.938 E18.34503
G0 F9000 X114.716 Y120.938
G1 F1800 X107.838 Y114.061 E18.66853
G0 F9000 X108.404 Y114.061
G1 F1800 X115.281 Y120.938 E18.992
G0 F9000 X115.847 Y120.938
G1 F1800 X108.97 Y114.061 E19.31547
G0 F9000 X109.535 Y114.061
G1 F1800 X116.413 Y120.938 E19.63897
G0 F9000 X116.978 Y120.938
G1 F1800 X110.101 Y114.061 E19.96244
G0 F9000 X110.667 Y114.061
G1 F1800 X117.544 Y120.938 E20.28591
G0 F9000 X118.11 Y120.938
G1 F1800 X111.232 Y114.061 E20.60941
G0 F9000 X111.798 Y114.061
G1 F1800 X118.675 Y120.938 E20.93288
G0 F9000 X119.241 Y120.938
G1 F1800 X112.364 Y114.061 E21.25636
G0 F9000 X112.929 Y114.061
G1 F1800 X119.807 Y120.938 E21.57985
G0 F9000 X120.372 Y120.938
G1 F1800 X113.495 Y114.061 E21.90333
G0 F9000 X114.061 Y114.061
G1 F1800 X120.938 Y120.938 E22.2268
G0 F9000 X121.504 Y120.938
G1 F1800 X114.626 Y114.061 E22.5503
G0 F9000 X115.192 Y114.061
G1 F1800 X122.069 Y120.938 E22.87377
G0 F9000 X122.635 Y120.938
G1 F1800 X115.758 Y114.061 E23.19724
G0 F9000 X116.324 Y114.061
G1 F1800 X123.202 Y120.939 E23.52076
G0 F9000 X123.767 Y120.939
G1 F1800 X116.889 Y114.061 E23.84428
G0 F9000 X117.455 Y114.061
G1 F1800 X124.333 Y120.939 E24.1678
G0 F9000 X124.899 Y120.939
G1 F1800 X118.02 Y114.06 E24.49137
G0 F9000 X118.586 Y114.06
G1 F1800 X125.464 Y120.939 E24.81491
G0 F9000 X126.03 Y120.939
G1 F1800 X119.151 Y114.06 E25.13848
G0 F9000 X119.717 Y114.06
G1 F1800 X126.596 Y120.939 E25.46205
G0 F9000 X127.161 Y120.939
G1 F1800 X120.283 Y114.06 E25.78559
G0 F9000 X120.848 Y114.06
G1 F1800 X127.727 Y120.939 E26.10916
G0 F9000 X128.293 Y120.939
G1 F1800 X121.414 Y114.06 E26.43272
G0 F9000 X121.98 Y114.06
G1 F1800 X128.858 Y120.939 E26.75627
G0 F9000 X129.424 Y120.939
G1 F1800 X122.545 Y114.06 E27.07983
G0 F9000 X123.111 Y114.06
G1 F1800 X129.99 Y120.939 E27.4034
G0 F9000 X130.555 Y120.939
G1 F1800 X129.448 Y119.831 E27.4555
G0 F9000 X130.22 Y120.037
G1 F1800 X131.121 Y120.939 E27.4979
G0 F9000 X131.687 Y120.939
G1 F1800 X130.783 Y120.035 E27.54042
G0 F9000 X131.255 Y119.942
G1 F1800 X132.253 Y120.939 E27.58734
G0 F9000 X132.818 Y120.939
G1 F1800 X131.669 Y119.79 E27.64139
G0 F9000 X132.006 Y119.561
G1 F1800 X133.384 Y120.939 E27.7062
G0 F9000 X133.939 Y120.928
G1 F1800 X132.313 Y119.303 E27.78266
G0 F9000 X132.563 Y118.986
G1 F1800 X133.939 Y120.363 E27.84741
G0 F9000 X133.939 Y119.797
G1 F1800 X132.779 Y118.637 E27.90197
G0 F9000 X132.938 Y118.23
G1 F1800 X133.939 Y119.231 E27.94905
G0 F9000 X133.939 Y118.665
G1 F1800 X133.038 Y117.765 E27.99141
G0 F9000 X133.032 Y117.193
G1 F1800 X133.939 Y118.1 E28.03407
G0 F9000 X133.939 Y117.534
G1 F1800 X132.801 Y116.396 E28.0876
G0 F9000 X132.396 Y116.61
G0 X132.574 Y116.839
G0 X134.3 Y116.839
G0 X134.4 Y116.403
G0 X133.939 Y116.403
G1 F1800 X131.596 Y114.06 E28.19781
G0 F9000 X131.031 Y114.06
G1 F1800 X133.939 Y116.968 E28.33459
G0 F9000 X134.4 Y116.968
G0 X134.4 Y115.837
G0 X133.939 Y115.837
G1 F1800 X132.162 Y114.06 E28.41818
G0 F9000 X132.728 Y114.06
G1 F1800 X133.939 Y115.271 E28.47514
G0 F9000 X133.939 Y114.706
G1 F1800 X133.293 Y114.06 E28.50552
G0 F9000 X133.859 Y114.06
G1 F1800 X133.939 Y114.14 E28.50929
G1 F1500 E22.50929
G0 F9000 X134.4 Y114.14
G0 X134.328 Y113.672
G0 X132.945 Y113.687
G0 X131.631 Y115.64
G0 X131.375 Y115.595
G1 F1500 E28.50929
G0 F9000 X131.589 Y115.184
G1 F1800 X130.465 Y114.06 E28.56216
G0 F9000 X129.899 Y114.06
G1 F1800 X130.806 Y114.967 E28.60482
G0 F9000 X130.237 Y114.963
G1 F1800 X129.334 Y114.06 E28.64729
G0 F9000 X128.768 Y114.06
G1 F1800 X129.759 Y115.051 E28.69391
G0 F9000 X129.346 Y115.203
G1 F1800 X128.202 Y114.06 E28.74769
G0 F9000 X127.637 Y114.06
G1 F1800 X129.004 Y115.428 E28.81202
G0 F9000 X128.696 Y115.685
G1 F1800 X127.071 Y114.06 E28.88845
G0 F9000 X126.505 Y114.06
G1 F1800 X128.431 Y115.986 E28.97905
G0 F9000 X128.224 Y116.345
G1 F1800 X125.939 Y114.06 E29.08652
G0 F9000 X125.374 Y114.06
G1 F1800 X128.057 Y116.743 E29.21272
G0 F9000 X127.963 Y117.215
G1 F1800 X124.808 Y114.06 E29.36113
G0 F9000 X124.242 Y114.06
G1 F1800 X127.963 Y117.781 E29.53615
G0 F9000 X128.168 Y118.551
G1 F1800 X123.677 Y114.06 E29.74739
G1 F1500 E23.74739
;MESH:NONMESH
G0 F300 X123.677 Y114.06 Z0.44
G0 F9000 X123.677 Y113.6
G0 X100.673 Y113.673
G0 X100.501 Y121.499
;TIME_ELAPSED:50.428196
;LAYER:1
M106 S85
;TYPE:WALL-INNER
;MESH:teensyClamp.stl
G1 F1500 E29.74739
